app/public/luts/cold-steel.cube
TITLE "Cold Steel Blue"
LUT_3D_SIZE 33
DOMAIN_MIN 0.0 0.0 0.0
DOMAIN_MAX 1.0 1.0 1.0
0.000000 0.000000 0.000000
0.000000 0.000000 0.000000
0.018141 0.000000 0.000000
0.047174 0.000000 0.000000
0.076207 0.000000 0.000000
0.105240 0.000000 0.000000
0.134273 0.000000 0.000000
0.163306 0.000000 0.000000
0.192339 0.000000 0.000000
0.221372 0.000000 0.000000
0.250405 0.000000 0.000000
0.279438 0.000000 0.000000
0.308471 0.000000 0.000000
0.337504 0.000000 0.000000
0.366537 0.000000 0.000000
0.395570 0.000000 0.000000
0.424603 0.000000 0.000000
0.453635 0.000000 0.000000
0.482668 0.000000 0.000000
0.511701 0.000000 0.000000
0.540734 0.000000 0.000000
0.569767 0.000000 0.000000
0.598800 0.000000 0.000000
0.627833 0.000000 0.000000
0.656866 0.000000 0.000000
0.685899 0.000000 0.000000
0.714932 0.000000 0.000000
0.743965 0.000000 0.000000
0.772998 0.000000 0.000000
0.802031 0.000000 0.000000
0.831064 0.000000 0.000000
0.860097 0.000000 0.000000
0.889130 0.000000 0.000000
0.000000 0.000000 0.000000
0.000000 0.000000 0.000000
0.021037 0.000000 0.000000
0.050070 0.000000 0.000000
0.079103 0.000000 0.000000
0.108136 0.000000 0.000000
0.137169 0.000000 0.000000
0.166202 0.000000 0.000000
0.195235 0.000000 0.000000
0.224268 0.000033 0.000000
0.253301 0.000851 0.000000
0.282334 0.001669 0.000000
0.311367 0.002487 0.000000
0.340400 0.003305 0.000000
0.369433 0.004123 0.000000
0.398466 0.004941 0.000000
0.427499 0.005759 0.000000
0.456532 0.006577 0.000000
0.485565 0.007395 0.000000
0.514598 0.008213 0.000000
0.543631 0.009031 0.000000
0.572664 0.009849 0.000000
0.601697 0.010667 0.000000
0.630730 0.011485 0.000000
0.659763 0.012303 0.000000
0.688796 0.013121 0.000000
0.717829 0.013939 0.000000
0.746862 0.014757 0.000000
0.775895 0.015575 0.000000
0.804928 0.016393 0.000000
0.833961 0.017211 0.000000
0.862994 0.018029 0.000000
0.892027 0.018847 0.000000
0.000000 0.025268 0.000000
0.000000 0.026086 0.000000
0.023934 0.026904 0.000000
0.052967 0.027722 0.000000
0.082000 0.028540 0.000000
0.111033 0.029358 0.000000
0.140066 0.030176 0.000000
0.169099 0.030994 0.000000
0.198132 0.031812 0.000000
0.227165 0.032630 0.000000
0.256198 0.033448 0.000000
0.285231 0.034266 0.000000
0.314264 0.035084 0.000000
0.343297 0.035902 0.000000
0.372330 0.036720 0.000000
0.401363 0.037538 0.000000
0.430396 0.038356 0.000000
0.459429 0.039174 0.000000
0.488462 0.039992 0.000000
0.517495 0.040810 0.000000
0.546528 0.041628 0.000000
0.575561 0.042446 0.000000
0.604594 0.043264 0.000000
0.633626 0.044081 0.000000
0.662659 0.044899 0.000000
0.691692 0.045717 0.000000
0.720725 0.046535 0.000000
0.749758 0.047353 0.000000
0.778791 0.048171 0.000000
0.807824 0.048989 0.000000
0.836857 0.049807 0.000000
0.865890 0.050625 0.000000
0.894923 0.051443 0.000000
0.000000 0.057865 0.000000
0.000000 0.058683 0.000000
0.026830 0.059500 0.000000
0.055863 0.060318 0.000000
0.084896 0.061136 0.000000
0.113929 0.061954 0.000000
0.142962 0.062772 0.000000
0.171995 0.063590 0.000000
0.201028 0.064408 0.000000
0.230061 0.065226 0.000000
0.259094 0.066044 0.000000
0.288127 0.066862 0.000000
0.317160 0.067680 0.000000
0.346193 0.068498 0.000000
0.375226 0.069316 0.000000
0.404259 0.070134 0.000000
0.433292 0.070952 0.000000
0.462325 0.071770 0.000000
0.491358 0.072588 0.000000
0.520391 0.073406 0.000000
0.549424 0.074224 0.000000
0.578457 0.075042 0.000000
0.607490 0.075860 0.000000
0.636523 0.076678 0.000000
0.665556 0.077496 0.000000
0.694589 0.078314 0.000000
0.723622 0.079132 0.000000
0.752655 0.079950 0.000000
0.781688 0.080768 0.000000
0.810721 0.081586 0.000089
0.839754 0.082404 0.000907
0.868787 0.083222 0.001725
0.897820 0.084040 0.002543
0.000000 0.090461 0.000000
0.000694 0.091279 0.000000
0.029727 0.092097 0.000000
0.058760 0.092915 0.000000
0.087793 0.093733 0.000000
0.116826 0.094551 0.000000
0.145859 0.095369 0.000000
0.174892 0.096187 0.000000
0.203925 0.097005 0.000000
0.232958 0.097823 0.000000
0.261991 0.098641 0.000000
0.291024 0.099459 0.000000
0.320057 0.100277 0.000000
0.349090 0.101095 0.000000
0.378123 0.101913 0.000000
0.407156 0.102731 0.000000
0.436189 0.103549 0.000000
0.465222 0.104367 0.000000
0.494255 0.105185 0.000000
0.523288 0.106003 0.000000
0.552321 0.106821 0.000000
0.581354 0.107639 0.000000
0.610387 0.108457 0.000000
0.639420 0.109275 0.000000
0.668453 0.110093 0.000000
0.697486 0.110911 0.000000
0.726519 0.111729 0.000532
0.755552 0.112547 0.001350
0.784584 0.113364 0.002168
0.813617 0.114182 0.002986
0.842650 0.115000 0.003804
0.871683 0.115818 0.004622
0.900716 0.116636 0.005440
0.000000 0.123058 0.000000
0.003591 0.123876 0.000000
0.032624 0.124694 0.000000
0.061657 0.125512 0.000000
0.090690 0.126330 0.000000
0.119723 0.127148 0.000000
0.148756 0.127966 0.000000
0.177789 0.128784 0.000000
0.206821 0.129601 0.000000
0.235854 0.130419 0.000000
0.264887 0.131237 0.000000
0.293920 0.132055 0.000000
0.322953 0.132873 0.000000
0.351986 0.133691 0.000000
0.381019 0.134509 0.000000
0.410052 0.135327 0.000000
0.439085 0.136145 0.000000
0.468118 0.136963 0.000000
0.497151 0.137781 0.000000
0.526184 0.138599 0.000000
0.555217 0.139417 0.000000
0.584250 0.140235 0.000000
0.613283 0.141053 0.000156
0.642316 0.141871 0.000974
0.671349 0.142689 0.001792
0.700382 0.143507 0.002610
0.729415 0.144325 0.003428
0.758448 0.145143 0.004246
0.787481 0.145961 0.005064
0.816514 0.146779 0.005882
0.845547 0.147597 0.006700
0.874580 0.148415 0.007518
0.903613 0.149233 0.008336
0.000000 0.155654 0.000000
0.006487 0.156472 0.000000
0.035520 0.157290 0.000000
0.064553 0.158108 0.000000
0.093586 0.158926 0.000000
0.122619 0.159744 0.000000
0.151652 0.160562 0.000000
0.180685 0.161380 0.000000
0.209718 0.162198 0.000000
0.238751 0.163016 0.000000
0.267784 0.163834 0.000000
0.296817 0.164652 0.000000
0.325850 0.165470 0.000000
0.354883 0.166288 0.000000
0.383916 0.167106 0.000000
0.412949 0.167924 0.000000
0.441982 0.168742 0.000000
0.471015 0.169560 0.000000
0.500048 0.170378 0.000000
0.529081 0.171196 0.000599
0.558114 0.172014 0.001417
0.587147 0.172832 0.002235
0.616180 0.173650 0.003053
0.645213 0.174468 0.003871
0.674246 0.175286 0.004689
0.703279 0.176104 0.005507
0.732312 0.176922 0.006325
0.761345 0.177740 0.007143
0.790378 0.178558 0.007961
0.819411 0.179376 0.008779
0.848444 0.180194 0.009597
0.877477 0.181012 0.010415
0.906510 0.181830 0.011233
0.000000 0.188251 0.000000
0.009384 0.189069 0.000000
0.038417 0.189887 0.000000
0.067450 0.190705 0.000000
0.096483 0.191523 0.000000
0.125516 0.192341 0.000000
0.154549 0.193159 0.000000
0.183582 0.193977 0.000000
0.212615 0.194795 0.000000
0.241648 0.195613 0.000000
0.270681 0.196431 0.000000
0.299714 0.197249 0.000000
0.328747 0.198067 0.000000
0.357779 0.198884 0.000000
0.386812 0.199702 0.000000
0.415845 0.200520 0.000224
0.444878 0.201338 0.001042
0.473911 0.202156 0.001860
0.502944 0.202974 0.002678
0.531977 0.203792 0.003496
0.561010 0.204610 0.004314
0.590043 0.205428 0.005132
0.619076 0.206246 0.005950
0.648109 0.207064 0.006767
0.677142 0.207882 0.007585
0.706175 0.208700 0.008403
0.735208 0.209518 0.009221
0.764241 0.210336 0.010039
0.793274 0.211154 0.010857
0.822307 0.211972 0.011675
0.851340 0.212790 0.012493
0.880373 0.213608 0.013311
0.909406 0.214426 0.014129
0.000000 0.220847 0.000000
0.012280 0.221665 0.000000
0.041313 0.222483 0.000000
0.070346 0.223301 0.000000
0.099379 0.224119 0.000000
0.128412 0.224937 0.000000
0.157445 0.225755 0.000000
0.186478 0.226573 0.000000
0.215511 0.227391 0.000000
0.244544 0.228209 0.000000
0.273577 0.229027 0.000000
0.302610 0.229845 0.000000
0.331643 0.230663 0.000666
0.360676 0.231481 0.001484
0.389709 0.232299 0.002302
0.418742 0.233117 0.003120
0.447775 0.233935 0.003938
0.476808 0.234753 0.004756
0.505841 0.235571 0.005574
0.534874 0.236389 0.006392
0.563907 0.237207 0.007210
0.592940 0.238025 0.008028
0.621973 0.238843 0.008846
0.651006 0.239661 0.009664
0.680039 0.240479 0.010482
0.709072 0.241297 0.011300
0.738105 0.242115 0.012118
0.767138 0.242933 0.012936
0.796171 0.243751 0.013754
0.825204 0.244569 0.014572
0.854237 0.245387 0.015390
0.883270 0.246205 0.016208
0.912303 0.247023 0.017026
0.000000 0.253444 0.000000
0.015177 0.254262 0.000000
0.044210 0.255080 0.000000
0.073243 0.255898 0.000000
0.102276 0.256716 0.000000
0.131309 0.257534 0.000000
0.160342 0.258352 0.000000
0.189375 0.259170 0.000000
0.218408 0.259988 0.000291
0.247441 0.260806 0.001109
0.276474 0.261624 0.001927
0.305507 0.262442 0.002745
0.334540 0.263260 0.003563
0.363573 0.264078 0.004381
0.392606 0.264896 0.005199
0.421639 0.265714 0.006017
0.450672 0.266532 0.006835
0.479705 0.267350 0.007653
0.508738 0.268168 0.008471
0.537770 0.268985 0.009289
0.566803 0.269803 0.010107
0.595836 0.270621 0.010925
0.624869 0.271439 0.011743
0.653902 0.272257 0.012561
0.682935 0.273075 0.013379
0.711968 0.273893 0.014197
0.741001 0.274711 0.015015
0.770034 0.275529 0.015833
0.799067 0.276347 0.016650
0.828100 0.277165 0.017468
0.857133 0.277983 0.018286
0.886166 0.278801 0.019104
0.915199 0.279619 0.019922
0.000000 0.286040 0.000000
0.018073 0.286858 0.000000
0.047106 0.287676 0.000000
0.076139 0.288494 0.000000
0.105172 0.289312 0.000000
0.134205 0.290130 0.000734
0.163238 0.290948 0.001552
0.192271 0.291766 0.002370
0.221304 0.292584 0.003187
0.250337 0.293402 0.004005
0.279370 0.294220 0.004823
0.308403 0.295038 0.005641
0.337436 0.295856 0.006459
0.366469 0.296674 0.007277
0.395502 0.297492 0.008095
0.424535 0.298310 0.008913
0.453568 0.299128 0.009731
0.482601 0.299946 0.010549
0.511634 0.300764 0.011367
0.540667 0.301582 0.012185
0.569700 0.302400 0.013003
0.598733 0.303218 0.013821
0.627766 0.304036 0.014639
0.656799 0.304854 0.015457
0.685832 0.305672 0.016275
0.714865 0.306490 0.017093
0.743898 0.307308 0.017911
0.772931 0.308126 0.018729
0.801964 0.308944 0.019547
0.830997 0.309762 0.020365
0.860030 0.310580 0.021183
0.889063 0.311398 0.022001
0.918096 0.312216 0.022819
0.000000 0.318637 0.000000
0.020970 0.319455 0.000358
0.050003 0.320273 0.001176
0.079036 0.321091 0.001994
0.108069 0.321909 0.002812
0.137102 0.322727 0.003630
0.166135 0.323545 0.004448
0.195168 0.324363 0.005266
0.224201 0.325181 0.006084
0.253234 0.325999 0.006902
0.282267 0.326817 0.007720
0.311300 0.327635 0.008538
0.340333 0.328453 0.009356
0.369366 0.329271 0.010174
0.398399 0.330089 0.010992
0.427432 0.330907 0.011810
0.456465 0.331725 0.012628
0.485498 0.332543 0.013446
0.514531 0.333361 0.014264
0.543564 0.334179 0.015082
0.572597 0.334997 0.015900
0.601630 0.335815 0.016718
0.630663 0.336633 0.017536
0.659696 0.337451 0.018354
0.688729 0.338269 0.019172
0.717761 0.339086 0.019990
0.746794 0.339904 0.020808
0.775827 0.340722 0.021626
0.804860 0.341540 0.022444
0.833893 0.342358 0.023262
0.862926 0.343176 0.024080
0.891959 0.343994 0.024898
0.920992 0.344812 0.025716
0.000000 0.351234 0.002437
0.023867 0.352052 0.003255
0.052900 0.352870 0.004073
0.081933 0.353688 0.004891
0.110965 0.354505 0.005709
0.139998 0.355323 0.006527
0.169031 0.356141 0.007345
0.198064 0.356959 0.008163
0.227097 0.357777 0.008981
0.256130 0.358595 0.009799
0.285163 0.359413 0.010617
0.314196 0.360231 0.011435
0.343229 0.361049 0.012253
0.372262 0.361867 0.013070
0.401295 0.362685 0.013888
0.430328 0.363503 0.014706
0.459361 0.364321 0.015524
0.488394 0.365139 0.016342
0.517427 0.365957 0.017160
0.546460 0.366775 0.017978
0.575493 0.367593 0.018796
0.604526 0.368411 0.019614
0.633559 0.369229 0.020432
0.662592 0.370047 0.021250
0.691625 0.370865 0.022068
0.720658 0.371683 0.022886
0.749691 0.372501 0.023704
0.778724 0.373319 0.024522
0.807757 0.374137 0.025340
0.836790 0.374955 0.026158
0.865823 0.375773 0.026976
0.894856 0.376591 0.027794
0.923889 0.377409 0.028612
0.000000 0.383830 0.005333
0.026763 0.384648 0.006151
0.055796 0.385466 0.006969
0.084829 0.386284 0.007787
0.113862 0.387102 0.008605
0.142895 0.387920 0.009423
0.171928 0.388738 0.010241
0.200961 0.389556 0.011059
0.229994 0.390374 0.011877
0.259027 0.391192 0.012695
0.288060 0.392010 0.013513
0.317093 0.392828 0.014331
0.346126 0.393646 0.015149
0.375159 0.394464 0.015967
0.404192 0.395282 0.016785
0.433225 0.396100 0.017603
0.462258 0.396918 0.018421
0.491291 0.397736 0.019239
0.520324 0.398554 0.020057
0.549357 0.399372 0.020875
0.578390 0.400190 0.021693
0.607423 0.401008 0.022511
0.636456 0.401826 0.023329
0.665489 0.402644 0.024147
0.694522 0.403462 0.024965
0.723555 0.404280 0.025783
0.752588 0.405098 0.026601
0.781621 0.405916 0.027419
0.810654 0.406734 0.028237
0.839687 0.407552 0.029055
0.868719 0.408369 0.029873
0.897752 0.409187 0.030691
0.926785 0.410005 0.031509
0.000627 0.416427 0.008230
0.029660 0.417245 0.009048
0.058693 0.418063 0.009866
0.087726 0.418881 0.010684
0.116759 0.419699 0.011502
0.145792 0.420517 0.012320
0.174825 0.421335 0.013138
0.203858 0.422153 0.013956
0.232891 0.422971 0.014774
0.261924 0.423789 0.015592
0.290956 0.424606 0.016410
0.319989 0.425424 0.017228
0.349022 0.426242 0.018046
0.378055 0.427060 0.018864
0.407088 0.427878 0.019682
0.436121 0.428696 0.020500
0.465154 0.429514 0.021318
0.494187 0.430332 0.022136
0.523220 0.431150 0.022954
0.552253 0.431968 0.023771
0.581286 0.432786 0.024589
0.610319 0.433604 0.025407
0.639352 0.434422 0.026225
0.668385 0.435240 0.027043
0.697418 0.436058 0.027861
0.726451 0.436876 0.028679
0.755484 0.437694 0.029497
0.784517 0.438512 0.030315
0.813550 0.439330 0.031133
0.842583 0.440148 0.031951
0.871616 0.440966 0.032769
0.900649 0.441784 0.033587
0.929682 0.442602 0.034405
0.003523 0.449023 0.011126
0.032556 0.449841 0.011944
0.061589 0.450659 0.012762
0.090622 0.451477 0.013580
0.119655 0.452295 0.014398
0.148688 0.453113 0.015216
0.177721 0.453931 0.016034
0.206754 0.454749 0.016852
0.235787 0.455567 0.017670
0.264820 0.456385 0.018488
0.293853 0.457203 0.019306
0.322886 0.458021 0.020124
0.351919 0.458839 0.020942
0.380952 0.459657 0.021760
0.409985 0.460475 0.022578
0.439018 0.461293 0.023396
0.468051 0.462111 0.024214
0.497084 0.462929 0.025032
0.526117 0.463747 0.025850
0.555150 0.464565 0.026668
0.584183 0.465383 0.027486
0.613216 0.466201 0.028304
0.642249 0.467019 0.029122
0.671282 0.467837 0.029940
0.700315 0.468655 0.030758
0.729348 0.469473 0.031576
0.758381 0.470291 0.032394
0.787414 0.471109 0.033212
0.816447 0.471927 0.034030
0.845480 0.472745 0.034848
0.874513 0.473563 0.035666
0.903546 0.474381 0.036484
0.932579 0.475199 0.037302
0.006420 0.481620 0.014023
0.035453 0.482438 0.014841
0.064486 0.483256 0.015659
0.093519 0.484074 0.016477
0.122552 0.484892 0.017295
0.151585 0.485710 0.018113
0.180618 0.486528 0.018931
0.209651 0.487346 0.019749
0.238684 0.488164 0.020567
0.267717 0.488982 0.021385
0.296750 0.489800 0.022203
0.325783 0.490618 0.023021
0.354816 0.491436 0.023839
0.383849 0.492254 0.024657
0.412882 0.493072 0.025475
0.441914 0.493889 0.026293
0.470947 0.494707 0.027111
0.499980 0.495525 0.027929
0.529013 0.496343 0.028747
0.558046 0.497161 0.029565
0.587079 0.497979 0.030383
0.616112 0.498797 0.031201
0.645145 0.499615 0.032019
0.674178 0.500433 0.032837
0.703211 0.501251 0.033655
0.732244 0.502069 0.034472
0.761277 0.502887 0.035290
0.790310 0.503705 0.036108
0.819343 0.504523 0.036926
0.848376 0.505341 0.037744
0.877409 0.506159 0.038562
0.906442 0.506977 0.039380
0.935475 0.507795 0.040198
0.009316 0.514216 0.016920
0.038349 0.515034 0.017738
0.067382 0.515852 0.018556
0.096415 0.516670 0.019374
0.125448 0.517488 0.020191
0.154481 0.518306 0.021009
0.183514 0.519124 0.021827
0.212547 0.519942 0.022645
0.241580 0.520760 0.023463
0.270613 0.521578 0.024281
0.299646 0.522396 0.025099
0.328679 0.523214 0.025917
0.357712 0.524032 0.026735
0.386745 0.524850 0.027553
0.415778 0.525668 0.028371
0.444811 0.526486 0.029189
0.473844 0.527304 0.030007
0.502877 0.528122 0.030825
0.531910 0.528940 0.031643
0.560943 0.529758 0.032461
0.589976 0.530576 0.033279
0.619009 0.531394 0.034097
0.648042 0.532212 0.034915
0.677075 0.533030 0.035733
0.706108 0.533848 0.036551
0.735141 0.534666 0.037369
0.764174 0.535484 0.038187
0.793207 0.536302 0.039005
0.822240 0.537120 0.039823
0.851273 0.537938 0.040641
0.880306 0.538756 0.041459
0.909339 0.539574 0.042277
0.938372 0.540392 0.043095
0.012213 0.546813 0.019816
0.041246 0.547631 0.020634
0.070279 0.548449 0.021452
0.099312 0.549267 0.022270
0.128345 0.550085 0.023088
0.157378 0.550903 0.023906
0.186411 0.551721 0.024724
0.215444 0.552539 0.025542
0.244477 0.553357 0.026360
0.273510 0.554175 0.027178
0.302543 0.554993 0.027996
0.331576 0.555811 0.028814
0.360609 0.556629 0.029632
0.389642 0.557447 0.030450
0.418675 0.558265 0.031268
0.447708 0.559083 0.032086
0.476741 0.559901 0.032904
0.505774 0.560719 0.033722
0.534807 0.561537 0.034540
0.563840 0.562355 0.035358
0.592873 0.563173 0.036176
0.621905 0.563990 0.036994
0.650938 0.564808 0.037812
0.679971 0.565626 0.038630
0.709004 0.566444 0.039448
0.738037 0.567262 0.040266
0.767070 0.568080 0.041084
0.796103 0.568898 0.041902
0.825136 0.569716 0.042720
0.854169 0.570534 0.043538
0.883202 0.571352 0.044355
0.912235 0.572170 0.045173
0.941268 0.572988 0.045991
0.015109 0.579409 0.022713
0.044142 0.580227 0.023531
0.073175 0.581045 0.024349
0.102208 0.581863 0.025167
0.131241 0.582681 0.025985
0.160274 0.583499 0.026803
0.189307 0.584317 0.027621
0.218340 0.585135 0.028439
0.247373 0.585953 0.029257
0.276406 0.586771 0.030075
0.305439 0.587589 0.030892
0.334472 0.588407 0.031710
0.363505 0.589225 0.032528
0.392538 0.590043 0.033346
0.421571 0.590861 0.034164
0.450604 0.591679 0.034982
0.479637 0.592497 0.035800
0.508670 0.593315 0.036618
0.537703 0.594133 0.037436
0.566736 0.594951 0.038254
0.595769 0.595769 0.039072
0.624802 0.596587 0.039890
0.653835 0.597405 0.040708
0.682868 0.598223 0.041526
0.711901 0.599041 0.042344
0.740934 0.599859 0.043162
0.769967 0.600677 0.043980
0.799000 0.601495 0.044798
0.828033 0.602313 0.045616
0.857066 0.603131 0.046434
0.886099 0.603949 0.047252
0.915132 0.604767 0.048070
0.944165 0.605585 0.048888
0.018006 0.612006 0.025609
0.047039 0.612824 0.026427
0.076072 0.613642 0.027245
0.105105 0.614460 0.028063
0.134138 0.615278 0.028881
0.163171 0.616096 0.029699
0.192204 0.616914 0.030517
0.221237 0.617732 0.031335
0.250270 0.618550 0.032153
0.279303 0.619368 0.032971
0.308336 0.620186 0.033789
0.337369 0.621004 0.034607
0.366402 0.621822 0.035425
0.395435 0.622640 0.036243
0.424468 0.623458 0.037061
0.453501 0.624276 0.037879
0.482534 0.625094 0.038697
0.511567 0.625912 0.039515
0.540600 0.626730 0.040333
0.569633 0.627548 0.041151
0.598666 0.628366 0.041969
0.627699 0.629184 0.042787
0.656732 0.630002 0.043605
0.685765 0.630820 0.044423
0.714798 0.631638 0.045241
0.743831 0.632456 0.046059
0.772863 0.633273 0.046877
0.801896 0.634091 0.047695
0.830929 0.634909 0.048513
0.859962 0.635727 0.049331
0.888995 0.636545 0.050149
0.918028 0.637363 0.050967
0.947061 0.638181 0.051785
0.020903 0.644603 0.028506
0.049936 0.645421 0.029324
0.078969 0.646239 0.030142
0.108002 0.647057 0.030960
0.137035 0.647875 0.031778
0.166068 0.648693 0.032596
0.195100 0.649510 0.033414
0.224133 0.650328 0.034232
0.253166 0.651146 0.035050
0.282199 0.651964 0.035868
0.311232 0.652782 0.036686
0.340265 0.653600 0.037504
0.369298 0.654418 0.038322
0.398331 0.655236 0.039140
0.427364 0.656054 0.039958
0.456397 0.656872 0.040775
0.485430 0.657690 0.041593
0.514463 0.658508 0.042411
0.543496 0.659326 0.043229
0.572529 0.660144 0.044047
0.601562 0.660962 0.044865
0.630595 0.661780 0.045683
0.659628 0.662598 0.046501
0.688661 0.663416 0.047319
0.717694 0.664234 0.048137
0.746727 0.665052 0.048955
0.775760 0.665870 0.049773
0.804793 0.666688 0.050591
0.833826 0.667506 0.051409
0.862859 0.668324 0.052227
0.891892 0.669142 0.053045
0.920925 0.669960 0.053863
0.949958 0.670778 0.054681
0.023799 0.677199 0.031402
0.052832 0.678017 0.032220
0.081865 0.678835 0.033038
0.110898 0.679653 0.033856
0.139931 0.680471 0.034674
0.168964 0.681289 0.035492
0.197997 0.682107 0.036310
0.227030 0.682925 0.037128
0.256063 0.683743 0.037946
0.285096 0.684561 0.038764
0.314129 0.685379 0.039582
0.343162 0.686197 0.040400
0.372195 0.687015 0.041218
0.401228 0.687833 0.042036
0.430261 0.688651 0.042854
0.459294 0.689469 0.043672
0.488327 0.690287 0.044490
0.517360 0.691105 0.045308
0.546393 0.691923 0.046126
0.575426 0.692741 0.046944
0.604459 0.693559 0.047762
0.633492 0.694377 0.048580
0.662525 0.695195 0.049398
0.691558 0.696013 0.050216
0.720591 0.696831 0.051034
0.749624 0.697649 0.051852
0.778657 0.698467 0.052670
0.807690 0.699285 0.053488
0.836723 0.700103 0.054306
0.865756 0.700921 0.055124
0.894789 0.701739 0.055942
0.923822 0.702557 0.056760
0.952854 0.703374 0.057578
0.026696 0.709796 0.034299
0.055729 0.710614 0.035117
0.084762 0.711432 0.035935
0.113795 0.712250 0.036753
0.142828 0.713068 0.037571
0.171861 0.713886 0.038389
0.200894 0.714704 0.039207
0.229927 0.715522 0.040025
0.258960 0.716340 0.040843
0.287993 0.717158 0.041661
0.317026 0.717976 0.042479
0.346059 0.718794 0.043297
0.375091 0.719611 0.044115
0.404124 0.720429 0.044933
0.433157 0.721247 0.045751
0.462190 0.722065 0.046569
0.491223 0.722883 0.047387
0.520256 0.723701 0.048205
0.549289 0.724519 0.049023
0.578322 0.725337 0.049841
0.607355 0.726155 0.050659
0.636388 0.726973 0.051476
0.665421 0.727791 0.052294
0.694454 0.728609 0.053112
0.723487 0.729427 0.053930
0.752520 0.730245 0.054748
0.781553 0.731063 0.055566
0.810586 0.731881 0.056384
0.839619 0.732699 0.057202
0.868652 0.733517 0.058020
0.897685 0.734335 0.058838
0.926718 0.735153 0.059656
0.955751 0.735971 0.060474
0.029592 0.742392 0.037195
0.058625 0.743210 0.038013
0.087658 0.744028 0.038831
0.116691 0.744846 0.039649
0.145724 0.745664 0.040467
0.174757 0.746482 0.041285
0.203790 0.747300 0.042103
0.232823 0.748118 0.042921
0.261856 0.748936 0.043739
0.290889 0.749754 0.044557
0.319922 0.750572 0.045375
0.348955 0.751390 0.046193
0.377988 0.752208 0.047011
0.407021 0.753026 0.047829
0.436054 0.753844 0.048647
0.465087 0.754662 0.049465
0.494120 0.755480 0.050283
0.523153 0.756298 0.051101
0.552186 0.757116 0.051919
0.581219 0.757934 0.052737
0.610252 0.758752 0.053555
0.639285 0.759570 0.054373
0.668318 0.760388 0.055191
0.697351 0.761206 0.056009
0.726384 0.762024 0.056827
0.755417 0.762842 0.057645
0.784450 0.763660 0.058463
0.813483 0.764478 0.059281
0.842516 0.765296 0.060099
0.871549 0.766114 0.060917
0.900582 0.766932 0.061735
0.929615 0.767750 0.062553
0.958648 0.768568 0.063371
0.032489 0.774989 0.040092
0.061522 0.775807 0.040910
0.090555 0.776625 0.041728
0.119588 0.777443 0.042546
0.148621 0.778261 0.043364
0.177654 0.779079 0.044182
0.206687 0.779897 0.045000
0.235720 0.780715 0.045818
0.264753 0.781533 0.046636
0.293786 0.782351 0.047454
0.322819 0.783169 0.048272
0.351852 0.783987 0.049090
0.380885 0.784805 0.049908
0.409918 0.785623 0.050726
0.438951 0.786441 0.051544
0.467984 0.787259 0.052362
0.497017 0.788077 0.053180
0.526049 0.788894 0.053998
0.555082 0.789712 0.054816
0.584115 0.790530 0.055634
0.613148 0.791348 0.056452
0.642181 0.792166 0.057270
0.671214 0.792984 0.058088
0.700247 0.793802 0.058906
0.729280 0.794620 0.059724
0.758313 0.795438 0.060542
0.787346 0.796256 0.061359
0.816379 0.797074 0.062177
0.845412 0.797892 0.062995
0.874445 0.798710 0.063813
0.903478 0.799528 0.064631
0.932511 0.800346 0.065449
0.961544 0.801164 0.066267
0.035385 0.807585 0.042989
0.064418 0.808403 0.043807
0.093451 0.809221 0.044625
0.122484 0.810039 0.045443
0.151517 0.810857 0.046261
0.180550 0.811675 0.047079
0.209583 0.812493 0.047896
0.238616 0.813311 0.048714
0.267649 0.814129 0.049532
0.296682 0.814947 0.050350
0.325715 0.815765 0.051168
0.354748 0.816583 0.051986
0.383781 0.817401 0.052804
0.412814 0.818219 0.053622
0.441847 0.819037 0.054440
0.470880 0.819855 0.055258
0.499913 0.820673 0.056076
0.528946 0.821491 0.056894
0.557979 0.822309 0.057712
0.587012 0.823127 0.058530
0.616045 0.823945 0.059348
0.645078 0.824763 0.060166
0.674111 0.825581 0.060984
0.703144 0.826399 0.061802
0.732177 0.827217 0.062620
0.761210 0.828035 0.063438
0.790243 0.828853 0.064256
