app/public/luts/cold-steel.cube
TITLE "Cold Steel Blue"
LUT_3D_SIZE 9
DOMAIN_MIN 0.0 0.0 0.0
DOMAIN_MAX 1.0 1.0 1.0
0.000000 0.000000 0.000000
0.076207 0.000000 0.000000
0.192339 0.000000 0.000000
0.308471 0.000000 0.000000
0.424603 0.000000 0.000000
0.540734 0.000000 0.000000
0.656866 0.000000 0.000000
0.772998 0.000000 0.000000
0.889130 0.000000 0.000000
0.000000 0.090461 0.000000
0.087793 0.093733 0.000000
0.203925 0.097005 0.000000
0.320057 0.100277 0.000000
0.436189 0.103549 0.000000
0.552321 0.106821 0.000000
0.668453 0.110093 0.000000
0.784584 0.113364 0.002168
0.900716 0.116636 0.005440
0.000000 0.220847 0.000000
0.099379 0.224119 0.000000
0.215511 0.227391 0.000000
0.331643 0.230663 0.000666
0.447775 0.233935 0.003938
0.563907 0.237207 0.007210
0.680039 0.240479 0.010482
0.796171 0.243751 0.013754
0.912303 0.247023 0.017026
0.000000 0.351234 0.002437
0.110965 0.354505 0.005709
0.227097 0.357777 0.008981
0.343229 0.361049 0.012253
0.459361 0.364321 0.015524
0.575493 0.367593 0.018796
0.691625 0.370865 0.022068
0.807757 0.374137 0.025340
0.923889 0.377409 0.028612
0.006420 0.481620 0.014023
0.122552 0.484892 0.017295
0.238684 0.488164 0.020567
0.354816 0.491436 0.023839
0.470947 0.494707 0.027111
0.587079 0.497979 0.030383
0.703211 0.501251 0.033655
0.819343 0.504523 0.036926
0.935475 0.507795 0.040198
0.018006 0.612006 0.025609
0.134138 0.615278 0.028881
0.250270 0.618550 0.032153
0.366402 0.621822 0.035425
0.482534 0.625094 0.038697
0.598666 0.628366 0.041969
0.714798 0.631638 0.045241
0.830929 0.634909 0.048513
0.947061 0.638181 0.051785
0.029592 0.742392 0.037195
0.145724 0.745664 0.040467
0.261856 0.748936 0.043739
0.377988 0.752208 0.047011
0.494120 0.755480 0.050283
0.610252 0.758752 0.053555
0.726384 0.762024 0.056827
0.842516 0.765296 0.060099
0.958648 0.768568 0.063371
0.041179 0.872779 0.048782
0.157310 0.876050 0.052054
0.273442 0.879322 0.055326
0.389574 0.882594 0.058597
0.505706 0.885866 0.061869
0.621838 0.889138 0.065141
0.737970 0.892410 0.068413
0.854102 0.895682 0.071685
0.970234 0.898954 0.074957
0.052765 1.000000 0.060368
0.168897 1.000000 0.063640
0.285029 1.000000 0.066912
0.401161 1.000000 0.070184
0.517292 1.000000 0.073456
0.633424 1.000000 0.076728
0.749556 1.000000 0.079999
0.865688 1.000000 0.083271
0.981820 1.000000 0.086543
0.000000 0.000000 0.096046
0.077458 0.000000 0.099317
0.193590 0.000000 0.102589
0.309722 0.000000 0.105861
0.425854 0.000000 0.109133
0.541986 0.000000 0.112405
0.658118 0.000000 0.115677
0.774250 0.000000 0.118949
0.890382 0.000000 0.122221
0.000000 0.091713 0.107632
0.089045 0.094985 0.110904
0.205176 0.098256 0.114176
0.321308 0.101528 0.117448
0.437440 0.104800 0.120719
0.553572 0.108072 0.123991
0.669704 0.111344 0.127263
0.785836 0.114616 0.130535
0.901968 0.117888 0.133807
0.000000 0.222099 0.119218
0.100631 0.225371 0.122490
0.216763 0.228643 0.125762
0.332895 0.231915 0.129034
0.449027 0.235187 0.132306
0.565158 0.238458 0.135578
0.681290 0.241730 0.138850
0.797422 0.245002 0.142121
0.913554 0.248274 0.145393
0.000000 0.352485 0.130804
0.112217 0.355757 0.134076
0.228349 0.359029 0.137348
0.344481 0.362301 0.140620
0.460613 0.365573 0.143892
0.576745 0.368845 0.147164
0.692877 0.372117 0.150436
0.809008 0.375388 0.153708
0.925140 0.378660 0.156980
0.007671 0.482871 0.142391
0.123803 0.486143 0.145662
0.239935 0.489415 0.148934
0.356067 0.492687 0.152206
0.472199 0.495959 0.155478
0.588331 0.499231 0.158750
0.704463 0.502503 0.162022
0.820595 0.505775 0.165294
0.936727 0.509047 0.168566
0.019258 0.613258 0.153977
0.135389 0.616529 0.157249
0.251521 0.619801 0.160521
0.367653 0.623073 0.163793
0.483785 0.626345 0.167064
0.599917 0.629617 0.170336
0.716049 0.632889 0.173608
0.832181 0.636161 0.176880
0.948313 0.639433 0.180152
0.030844 0.743644 0.165563
0.146976 0.746916 0.168835
0.263108 0.750188 0.172107
0.379240 0.753460 0.175379
0.495371 0.756731 0.178651
0.611503 0.760003 0.181923
0.727635 0.763275 0.185194
0.843767 0.766547 0.188466
0.959899 0.769819 0.191738
0.042430 0.874030 0.177149
0.158562 0.877302 0.180421
0.274694 0.880574 0.183693
0.390826 0.883846 0.186965
0.506958 0.887118 0.190237
0.623090 0.890390 0.193509
0.739222 0.893662 0.196781
0.855353 0.896933 0.200053
0.971485 0.900205 0.203325
0.054016 1.000000 0.188735
0.170148 1.000000 0.192007
0.286280 1.000000 0.195279
0.402412 1.000000 0.198551
0.518544 1.000000 0.201823
0.634676 1.000000 0.205095
0.750808 1.000000 0.208367
0.866940 1.000000 0.211639
0.983072 1.000000 0.214911
0.000000 0.000000 0.224413
0.078710 0.000000 0.227685
0.194842 0.000000 0.230957
0.310974 0.000000 0.234229
0.427106 0.000000 0.237501
0.543237 0.000000 0.240773
0.659369 0.000000 0.244045
0.775501 0.000000 0.247316
0.891633 0.000000 0.250588
0.000000 0.092964 0.235999
0.090296 0.096236 0.239271
0.206428 0.099508 0.242543
0.322560 0.102780 0.245815
0.438692 0.106052 0.249087
0.554824 0.109324 0.252359
0.670956 0.112596 0.255631
0.787088 0.115868 0.258903
0.903219 0.119139 0.262175
0.000000 0.223350 0.247586
0.101882 0.226622 0.250857
0.218014 0.229894 0.254129
0.334146 0.233166 0.257401
0.450278 0.236438 0.260673
0.566410 0.239710 0.263945
0.682542 0.242982 0.267217
0.798674 0.246254 0.270489
0.914806 0.249526 0.273761
0.000000 0.353737 0.259172
0.113469 0.357009 0.262444
0.229600 0.360280 0.265716
0.345732 0.363552 0.268988
0.461864 0.366824 0.272259
0.577996 0.370096 0.275531
0.694128 0.373368 0.278803
0.810260 0.376640 0.282075
0.926392 0.379912 0.285347
0.008923 0.484123 0.270758
0.125055 0.487395 0.274030
0.241187 0.490667 0.277302
0.357319 0.493939 0.280574
0.473451 0.497211 0.283846
0.589582 0.500482 0.287118
0.705714 0.503754 0.290390
0.821846 0.507026 0.293661
0.937978 0.510298 0.296933
0.020509 0.614509 0.282344
0.136641 0.617781 0.285616
0.252773 0.621053 0.288888
0.368905 0.624325 0.292160
0.485037 0.627597 0.295432
0.601169 0.630869 0.298704
0.717301 0.634141 0.301976
0.833432 0.637412 0.305248
0.949564 0.640684 0.308520
0.032095 0.744895 0.293931
0.148227 0.748167 0.297202
0.264359 0.751439 0.300474
0.380491 0.754711 0.303746
0.496623 0.757983 0.307018
0.612755 0.761255 0.310290
0.728887 0.764527 0.313562
0.845019 0.767799 0.316834
0.961151 0.771071 0.320106
0.043682 0.875282 0.305517
0.159813 0.878553 0.308789
0.275945 0.881825 0.312061
0.392077 0.885097 0.315333
0.508209 0.888369 0.318604
0.624341 0.891641 0.321876
0.740473 0.894913 0.325148
0.856605 0.898185 0.328420
0.972737 0.901457 0.331692
0.055268 1.000000 0.317103
0.171400 1.000000 0.320375
0.287532 1.000000 0.323647
0.403664 1.000000 0.326919
0.519795 1.000000 0.330191
0.635927 1.000000 0.333463
0.752059 1.000000 0.336734
0.868191 1.000000 0.340006
0.984323 1.000000 0.343278
0.000000 0.000000 0.352781
0.079961 0.000000 0.356053
0.196093 0.000000 0.359324
0.312225 0.000000 0.362596
0.428357 0.000000 0.365868
0.544489 0.000000 0.369140
0.660621 0.000000 0.372412
0.776753 0.000000 0.375684
0.892885 0.000000 0.378956
0.000000 0.094216 0.364367
0.091548 0.097488 0.367639
0.207679 0.100759 0.370911
0.323811 0.104031 0.374183
0.439943 0.107303 0.377454
0.556075 0.110575 0.380726
0.672207 0.113847 0.383998
0.788339 0.117119 0.387270
0.904471 0.120391 0.390542
0.000000 0.224602 0.375953
0.103134 0.227874 0.379225
0.219266 0.231146 0.382497
0.335398 0.234418 0.385769
0.451530 0.237690 0.389041
0.567661 0.240961 0.392313
0.683793 0.244233 0.395585
0.799925 0.247505 0.398856
0.916057 0.250777 0.402128
0.000000 0.354988 0.387539
0.114720 0.358260 0.390811
0.230852 0.361532 0.394083
0.346984 0.364804 0.397355
0.463116 0.368076 0.400627
0.579248 0.371348 0.403899
0.695380 0.374620 0.407171
0.811512 0.377892 0.410443
0.927643 0.381163 0.413715
0.010174 0.485374 0.399126
0.126306 0.488646 0.402397
0.242438 0.491918 0.405669
0.358570 0.495190 0.408941
0.474702 0.498462 0.412213
0.590834 0.501734 0.415485
0.706966 0.505006 0.418757
0.823098 0.508278 0.422029
0.939230 0.511550 0.425301
0.021761 0.615761 0.410712
0.137893 0.619033 0.413984
0.254024 0.622304 0.417256
0.370156 0.625576 0.420528
0.486288 0.628848 0.423799
0.602420 0.632120 0.427071
0.718552 0.635392 0.430343
0.834684 0.638664 0.433615
0.950816 0.641936 0.436887
0.033347 0.746147 0.422298
0.149479 0.749419 0.425570
0.265611 0.752691 0.428842
0.381743 0.755963 0.432114
0.497874 0.759234 0.435386
0.614006 0.762506 0.438658
0.730138 0.765778 0.441930
0.846270 0.769050 0.445201
0.962402 0.772322 0.448473
0.044933 0.876533 0.433884
0.161065 0.879805 0.437156
0.277197 0.883077 0.440428
0.393329 0.886349 0.443700
0.509461 0.889621 0.446972
0.625593 0.892893 0.450244
0.741725 0.896165 0.453516
0.857856 0.899436 0.456788
0.973988 0.902708 0.460060
0.056519 1.000000 0.445471
0.172651 1.000000 0.448742
0.288783 1.000000 0.452014
0.404915 1.000000 0.455286
0.521047 1.000000 0.458558
0.637179 1.000000 0.461830
0.753311 1.000000 0.465102
0.869443 1.000000 0.468374
0.985575 1.000000 0.471646
0.000000 0.000000 0.481148
0.081213 0.000000 0.484420
0.197345 0.000000 0.487692
0.313477 0.000000 0.490964
0.429609 0.000000 0.494236
0.545740 0.000000 0.497508
0.661872 0.000000 0.500780
0.778004 0.000000 0.504052
0.894136 0.000000 0.507323
0.000000 0.095467 0.492734
0.092799 0.098739 0.496006
0.208931 0.102011 0.499278
0.325063 0.105283 0.502550
0.441195 0.108555 0.505822
0.557327 0.111827 0.509094
0.673459 0.115099 0.512366
0.789591 0.118371 0.515638
0.905722 0.121642 0.518910
0.000000 0.225853 0.504321
0.104385 0.229125 0.507593
0.220517 0.232397 0.510864
0.336649 0.235669 0.514136
0.452781 0.238941 0.517408
0.568913 0.242213 0.520680
0.685045 0.245485 0.523952
0.801177 0.248757 0.527224
0.917309 0.252029 0.530496
0.000000 0.356240 0.515907
0.115972 0.359512 0.519179
0.232103 0.362783 0.522451
0.348235 0.366055 0.525723
0.464367 0.369327 0.528994
0.580499 0.372599 0.532266
0.696631 0.375871 0.535538
0.812763 0.379143 0.538810
0.928895 0.382415 0.542082
0.011426 0.486626 0.527493
0.127558 0.489898 0.530765
0.243690 0.493170 0.534037
0.359822 0.496442 0.537309
0.475954 0.499714 0.540581
0.592085 0.502985 0.543853
0.708217 0.506257 0.547125
0.824349 0.509529 0.550396
0.940481 0.512801 0.553668
0.023012 0.617012 0.539079
0.139144 0.620284 0.542351
0.255276 0.623556 0.545623
0.371408 0.626828 0.548895
0.487540 0.630100 0.552167
0.603672 0.633372 0.555439
0.719804 0.636644 0.558711
0.835936 0.639916 0.561983
0.952067 0.643187 0.565255
0.034598 0.747398 0.550666
0.150730 0.750670 0.553937
0.266862 0.753942 0.557209
0.382994 0.757214 0.560481
0.499126 0.760486 0.563753
0.615258 0.763758 0.567025
0.731390 0.767030 0.570297
0.847522 0.770302 0.573569
0.963654 0.773574 0.576841
0.046185 0.877785 0.562252
0.162317 0.881057 0.565524
0.278448 0.884328 0.568796
0.394580 0.887600 0.572068
0.510712 0.890872 0.575339
0.626844 0.894144 0.578611
0.742976 0.897416 0.581883
0.859108 0.900688 0.585155
0.975240 0.903960 0.588427
0.057771 1.000000 0.573838
0.173903 1.000000 0.577110
0.290035 1.000000 0.580382
0.406167 1.000000 0.583654
0.522298 1.000000 0.586926
0.638430 1.000000 0.590198
0.754562 1.000000 0.593470
0.870694 1.000000 0.596741
0.986826 1.000000 0.600013
0.000000 0.000000 0.609516
0.082464 0.000000 0.612788
0.198596 0.000000 0.616059
0.314728 0.000000 0.619331
0.430860 0.000000 0.622603
0.546992 0.000000 0.625875
0.663124 0.000000 0.629147
0.779256 0.000000 0.632419
0.895388 0.000000 0.635691
0.000000 0.096719 0.621102
0.094051 0.099991 0.624374
0.210182 0.103262 0.627646
0.326314 0.106534 0.630918
0.442446 0.109806 0.634190
0.558578 0.113078 0.637461
0.674710 0.116350 0.640733
0.790842 0.119622 0.644005
0.906974 0.122894 0.647277
0.000000 0.227105 0.632688
0.105637 0.230377 0.635960
0.221769 0.233649 0.639232
0.337901 0.236921 0.642504
0.454033 0.240193 0.645776
0.570164 0.243464 0.649048
0.686296 0.246736 0.652320
0.802428 0.250008 0.655592
0.918560 0.253280 0.658863
0.001091 0.357491 0.644274
0.117223 0.360763 0.647546
0.233355 0.364035 0.650818
0.349487 0.367307 0.654090
0.465619 0.370579 0.657362
0.581751 0.373851 0.660634
0.697883 0.377123 0.663906
0.814015 0.380395 0.667178
0.930146 0.383666 0.670450
0.012677 0.487877 0.655861
0.128809 0.491149 0.659133
0.244941 0.494421 0.662404
0.361073 0.497693 0.665676
0.477205 0.500965 0.668948
0.593337 0.504237 0.672220
0.709469 0.507509 0.675492
0.825601 0.510781 0.678764
0.941733 0.514053 0.682036
0.024264 0.618264 0.667447
0.140396 0.621536 0.670719
0.256527 0.624807 0.673991
0.372659 0.628079 0.677263
0.488791 0.631351 0.680534
0.604923 0.634623 0.683806
0.721055 0.637895 0.687078
0.837187 0.641167 0.690350
0.953319 0.644439 0.693622
0.035850 0.748650 0.679033
0.151982 0.751922 0.682305
0.268114 0.755194 0.685577
0.384246 0.758466 0.688849
0.500378 0.761738 0.692121
0.616509 0.765009 0.695393
0.732641 0.768281 0.698665
0.848773 0.771553 0.701936
0.964905 0.774825 0.705208
0.047436 0.879036 0.690619
0.163568 0.882308 0.693891
0.279700 0.885580 0.697163
0.395832 0.888852 0.700435
0.511964 0.892124 0.703707
0.628096 0.895396 0.706979
0.744228 0.898668 0.710251
0.860360 0.901940 0.713523
0.976491 0.905211 0.716795
0.059022 1.000000 0.702206
0.175154 1.000000 0.705477
0.291286 1.000000 0.708749
0.407418 1.000000 0.712021
0.523550 1.000000 0.715293
0.639682 1.000000 0.718565
0.755814 1.000000 0.721837
0.871946 1.000000 0.725109
0.988078 1.000000 0.728381
0.000000 0.000000 0.737883
0.083716 0.000000 0.741155
0.199848 0.000000 0.744427
0.315980 0.000000 0.747699
0.432112 0.000000 0.750971
0.548244 0.000000 0.754243
0.664375 0.000000 0.757515
0.780507 0.000000 0.760787
0.896639 0.000000 0.764058
0.000000 0.097970 0.749469
0.095302 0.101242 0.752741
0.211434 0.104514 0.756013
0.327566 0.107786 0.759285
0.443698 0.111058 0.762557
0.559830 0.114330 0.765829
0.675962 0.117602 0.769101
0.792094 0.120874 0.772373
0.908225 0.124145 0.775645
0.000000 0.228356 0.761056
0.106888 0.231628 0.764328
0.223020 0.234900 0.767599
0.339152 0.238172 0.770871
0.455284 0.241444 0.774143
0.571416 0.244716 0.777415
0.687548 0.247988 0.780687
0.803680 0.251260 0.783959
0.919812 0.254532 0.787231
0.002343 0.358743 0.772642
0.118475 0.362015 0.775914
0.234606 0.365286 0.779186
0.350738 0.368558 0.782458
0.466870 0.371830 0.785730
0.583002 0.375102 0.789001
0.699134 0.378374 0.792273
0.815266 0.381646 0.795545
0.931398 0.384918 0.798817
0.013929 0.489129 0.784228
0.130061 0.492401 0.787500
0.246193 0.495673 0.790772
0.362325 0.498945 0.794044
0.478457 0.502217 0.797316
0.594588 0.505488 0.800588
0.710720 0.508760 0.803860
0.826852 0.512032 0.807132
0.942984 0.515304 0.810403
0.025515 0.619515 0.795814
0.141647 0.622787 0.799086
0.257779 0.626059 0.802358
0.373911 0.629331 0.805630
0.490043 0.632603 0.808902
0.606175 0.635875 0.812174
0.722307 0.639147 0.815446
0.838439 0.642419 0.818718
0.954570 0.645690 0.821990
0.037101 0.749901 0.807401
0.153233 0.753173 0.810672
0.269365 0.756445 0.813944
0.385497 0.759717 0.817216
0.501629 0.762989 0.820488
0.617761 0.766261 0.823760
0.733893 0.769533 0.827032
0.850025 0.772805 0.830304
0.966157 0.776077 0.833576
0.048688 0.880288 0.818987
0.164820 0.883560 0.822259
0.280951 0.886831 0.825531
0.397083 0.890103 0.828803
0.513215 0.893375 0.832074
0.629347 0.896647 0.835346
0.745479 0.899919 0.838618
0.861611 0.903191 0.841890
0.977743 0.906463 0.845162
0.060274 1.000000 0.830573
0.176406 1.000000 0.833845
0.292538 1.000000 0.837117
0.408670 1.000000 0.840389
0.524802 1.000000 0.843661
0.640933 1.000000 0.846933
0.757065 1.000000 0.850205
0.873197 1.000000 0.853476
0.989329 1.000000 0.856748
0.000000 0.000000 0.866251
0.084967 0.000000 0.869523
0.201099 0.000000 0.872794
0.317231 0.000000 0.876066
0.433363 0.000000 0.879338
0.549495 0.000000 0.882610
0.665627 0.000000 0.885882
0.781759 0.000000 0.889154
0.897891 0.000000 0.892426
0.000000 0.099222 0.877837
0.096554 0.102494 0.881109
0.212686 0.105766 0.884381
0.328817 0.109037 0.887653
0.444949 0.112309 0.890925
0.561081 0.115581 0.894196
0.677213 0.118853 0.897468
0.793345 0.122125 0.900740
0.909477 0.125397 0.904012
0.000000 0.229608 0.889423
0.108140 0.232880 0.892695
0.224272 0.236152 0.895967
0.340404 0.239424 0.899239
0.456536 0.242696 0.902511
0.572668 0.245968 0.905783
0.688799 0.249239 0.909055
0.804931 0.252511 0.912327
0.921063 0.255783 0.915598
0.003594 0.359994 0.901009
0.119726 0.363266 0.904281
0.235858 0.366538 0.907553
0.351990 0.369810 0.910825
0.468122 0.373082 0.914097
0.584254 0.376354 0.917369
0.700386 0.379626 0.920641
0.816518 0.382898 0.923913
0.932649 0.386169 0.927185
0.015180 0.490380 0.912596
0.131312 0.493652 0.915868
0.247444 0.496924 0.919139
0.363576 0.500196 0.922411
0.479708 0.503468 0.925683
0.595840 0.506740 0.928955
0.711972 0.510012 0.932227
0.828104 0.513284 0.935499
0.944236 0.516556 0.938771
0.026767 0.620767 0.924182
0.142899 0.624039 0.927454
0.259030 0.627310 0.930726
0.375162 0.630582 0.933998
0.491294 0.633854 0.937270
0.607426 0.637126 0.940541
0.723558 0.640398 0.943813
0.839690 0.643670 0.947085
0.955822 0.646942 0.950357
0.038353 0.751153 0.935768
0.154485 0.754425 0.939040
0.270617 0.757697 0.942312
0.386749 0.760969 0.945584
0.502881 0.764241 0.948856
0.619012 0.767512 0.952128
0.735144 0.770784 0.955400
0.851276 0.774056 0.958671
0.967408 0.777328 0.961943
0.049939 0.881539 0.947354
0.166071 0.884811 0.950626
0.282203 0.888083 0.953898
0.398335 0.891355 0.957170
0.514467 0.894627 0.960442
0.630599 0.897899 0.963714
0.746731 0.901171 0.966986
0.862863 0.904443 0.970258
0.978994 0.907714 0.973530
0.061525 1.000000 0.958941
0.177657 1.000000 0.962212
0.293789 1.000000 0.965484
0.409921 1.000000 0.968756
0.526053 1.000000 0.972028
0.642185 1.000000 0.975300
0.758317 1.000000 0.978572
0.874449 1.000000 0.981844
0.990581 1.000000 0.985116
0.000000 0.000000 0.994618
0.086219 0.000000 0.997890
0.202351 0.000000 1.000000
0.318483 0.000000 1.000000
0.434615 0.000000 1.000000
0.550747 0.000000 1.000000
0.666878 0.000000 1.000000
0.783010 0.000000 1.000000
0.899142 0.000000 1.000000
0.000000 0.100473 1.000000
0.097805 0.103745 1.000000
0.213937 0.107017 1.000000
0.330069 0.110289 1.000000
0.446201 0.113561 1.000000
0.562333 0.116833 1.000000
0.678465 0.120105 1.000000
0.794597 0.123377 1.000000
0.910729 0.126649 1.000000
0.000000 0.230859 1.000000
0.109391 0.234131 1.000000
0.225523 0.237403 1.000000
0.341655 0.240675 1.000000
0.457787 0.243947 1.000000
0.573919 0.247219 1.000000
0.690051 0.250491 1.000000
0.806183 0.253763 1.000000
0.922315 0.257035 1.000000
0.004846 0.361246 1.000000
0.120978 0.364518 1.000000
0.237110 0.367790 1.000000
0.353241 0.371061 1.000000
0.469373 0.374333 1.000000
0.585505 0.377605 1.000000
0.701637 0.380877 1.000000
0.817769 0.384149 1.000000
0.933901 0.387421 1.000000
0.016432 0.491632 1.000000
0.132564 0.494904 1.000000
0.248696 0.498176 1.000000
0.364828 0.501448 1.000000
0.480960 0.504720 1.000000
0.597092 0.507992 1.000000
0.713223 0.511263 1.000000
0.829355 0.514535 1.000000
0.945487 0.517807 1.000000
0.028018 0.622018 1.000000
0.144150 0.625290 1.000000
0.260282 0.628562 1.000000
0.376414 0.631834 1.000000
0.492546 0.635106 1.000000
0.608678 0.638378 1.000000
0.724810 0.641650 1.000000
0.840942 0.644922 1.000000
0.957073 0.648193 1.000000
0.039604 0.752404 1.000000
0.155736 0.755676 1.000000
0.271868 0.758948 1.000000
0.388000 0.762220 1.000000
0.504132 0.765492 1.000000
0.620264 0.768764 1.000000
0.736396 0.772036 1.000000
0.852528 0.775308 1.000000
0.968660 0.778580 1.000000
0.051191 0.882791 1.000000
0.167323 0.886063 1.000000
0.283454 0.889334 1.000000
0.399586 0.892606 1.000000
0.515718 0.895878 1.000000
0.631850 0.899150 1.000000
0.747982 0.902422 1.000000
0.864114 0.905694 1.000000
0.980246 0.908966 1.000000
0.062777 1.000000 1.000000
0.178909 1.000000 1.000000
0.295041 1.000000 1.000000
0.411173 1.000000 1.000000
0.527305 1.000000 1.000000
0.643436 1.000000 1.000000
0.759568 1.000000 1.000000
0.875700 1.000000 1.000000
0.991832 1.000000 1.000000
