app/public/luts/cold-steel.cube
TITLE "Cold Steel Blue"
LUT_3D_SIZE 5
DOMAIN_MIN 0.0 0.0 0.0
DOMAIN_MAX 1.0 1.0 1.0
0.000000 0.000000 0.000000
0.192339 0.000000 0.000000
0.424603 0.000000 0.000000
0.656866 0.000000 0.000000
0.889130 0.000000 0.000000
0.000000 0.220847 0.000000
0.215511 0.227391 0.000000
0.447775 0.233935 0.003938
0.680039 0.240479 0.010482
0.912303 0.247023 0.017026
0.006420 0.481620 0.014023
0.238684 0.488164 0.020567
0.470947 0.494707 0.027111
0.703211 0.501251 0.033655
0.935475 0.507795 0.040198
0.029592 0.742392 0.037195
0.261856 0.748936 0.043739
0.494120 0.755480 0.050283
0.726384 0.762024 0.056827
0.958648 0.768568 0.063371
0.052765 1.000000 0.060368
0.285029 1.000000 0.066912
0.517292 1.000000 0.073456
0.749556 1.000000 0.079999
0.981820 1.000000 0.086543
0.000000 0.000000 0.224413
0.194842 0.000000 0.230957
0.427106 0.000000 0.237501
0.659369 0.000000 0.244045
0.891633 0.000000 0.250588
0.000000 0.223350 0.247586
0.218014 0.229894 0.254129
0.450278 0.236438 0.260673
0.682542 0.242982 0.267217
0.914806 0.249526 0.273761
0.008923 0.484123 0.270758
0.241187 0.490667 0.277302
0.473451 0.497211 0.283846
0.705714 0.503754 0.290390
0.937978 0.510298 0.296933
0.032095 0.744895 0.293931
0.264359 0.751439 0.300474
0.496623 0.757983 0.307018
0.728887 0.764527 0.313562
0.961151 0.771071 0.320106
0.055268 1.000000 0.317103
0.287532 1.000000 0.323647
0.519795 1.000000 0.330191
0.752059 1.000000 0.336734
0.984323 1.000000 0.343278
0.000000 0.000000 0.481148
0.197345 0.000000 0.487692
0.429609 0.000000 0.494236
0.661872 0.000000 0.500780
0.894136 0.000000 0.507323
0.000000 0.225853 0.504321
0.220517 0.232397 0.510864
0.452781 0.238941 0.517408
0.685045 0.245485 0.523952
0.917309 0.252029 0.530496
0.011426 0.486626 0.527493
0.243690 0.493170 0.534037
0.475954 0.499714 0.540581
0.708217 0.506257 0.547125
0.940481 0.512801 0.553668
0.034598 0.747398 0.550666
0.266862 0.753942 0.557209
0.499126 0.760486 0.563753
0.731390 0.767030 0.570297
0.963654 0.773574 0.576841
0.057771 1.000000 0.573838
0.290035 1.000000 0.580382
0.522298 1.000000 0.586926
0.754562 1.000000 0.593470
0.986826 1.000000 0.600013
0.000000 0.000000 0.737883
0.199848 0.000000 0.744427
0.432112 0.000000 0.750971
0.664375 0.000000 0.757515
0.896639 0.000000 0.764058
0.000000 0.228356 0.761056
0.223020 0.234900 0.767599
0.455284 0.241444 0.774143
0.687548 0.247988 0.780687
0.919812 0.254532 0.787231
0.013929 0.489129 0.784228
0.246193 0.495673 0.790772
0.478457 0.502217 0.797316
0.710720 0.508760 0.803860
0.942984 0.515304 0.810403
0.037101 0.749901 0.807401
0.269365 0.756445 0.813944
0.501629 0.762989 0.820488
0.733893 0.769533 0.827032
0.966157 0.776077 0.833576
0.060274 1.000000 0.830573
0.292538 1.000000 0.837117
0.524802 1.000000 0.843661
0.757065 1.000000 0.850205
0.989329 1.000000 0.856748
0.000000 0.000000 0.994618
0.202351 0.000000 1.000000
0.434615 0.000000 1.000000
0.666878 0.000000 1.000000
0.899142 0.000000 1.000000
0.000000 0.230859 1.000000
0.225523 0.237403 1.000000
0.457787 0.243947 1.000000
0.690051 0.250491 1.000000
0.922315 0.257035 1.000000
0.016432 0.491632 1.000000
0.248696 0.498176 1.000000
0.480960 0.504720 1.000000
0.713223 0.511263 1.000000
0.945487 0.517807 1.000000
0.039604 0.752404 1.000000
0.271868 0.758948 1.000000
0.504132 0.765492 1.000000
0.736396 0.772036 1.000000
0.968660 0.778580 1.000000
0.062777 1.000000 1.000000
0.295041 1.000000 1.000000
0.527305 1.000000 1.000000
0.759568 1.000000 1.000000
0.991832 1.000000 1.000000
