app/public/luts/vivid-anime.cube
TITLE "Vivid Anime"
LUT_3D_SIZE 5
DOMAIN_MIN 0.0 0.0 0.0
DOMAIN_MAX 1.0 1.0 1.0
0.000000 0.000000 0.000000
0.288986 0.000000 0.000000
0.627972 0.000000 0.000000
0.966958 0.000000 0.000000
1.000000 0.000000 0.000000
0.000000 0.246930 0.000000
0.233365 0.230559 0.000000
0.572351 0.214189 0.000000
0.911337 0.197819 0.000000
1.000000 0.181449 0.000000
0.000000 0.543859 0.000000
0.177744 0.527489 0.000000
0.516730 0.511119 0.000000
0.855716 0.494749 0.000000
1.000000 0.478378 0.000000
0.000000 0.840789 0.000000
0.122123 0.824419 0.000000
0.461109 0.808048 0.000000
0.800095 0.791678 0.000000
1.000000 0.775308 0.000000
0.000000 1.000000 0.000000
0.066502 1.000000 0.000000
0.405488 1.000000 0.000000
0.744474 1.000000 0.000000
1.000000 1.000000 0.000000
0.000000 0.000000 0.296441
0.283371 0.000000 0.280070
0.622357 0.000000 0.263700
0.961343 0.000000 0.247330
1.000000 0.000000 0.230960
0.000000 0.241370 0.241370
0.227750 0.225000 0.225000
0.566736 0.208630 0.208630
0.905722 0.192260 0.192260
1.000000 0.175889 0.175889
0.000000 0.538300 0.186300
0.172129 0.521930 0.169930
0.511115 0.505559 0.153559
0.850101 0.489189 0.137189
1.000000 0.472819 0.120819
0.000000 0.835229 0.131229
0.116508 0.818859 0.114859
0.455494 0.802489 0.098489
0.794480 0.786119 0.082119
1.000000 0.769749 0.065749
0.000000 1.000000 0.076159
0.060887 1.000000 0.059789
0.399873 1.000000 0.043419
0.738859 1.000000 0.027048
1.000000 1.000000 0.010678
0.000000 0.000000 0.642881
0.277756 0.000000 0.626511
0.616742 0.000000 0.610141
0.955728 0.000000 0.593771
1.000000 0.000000 0.577400
0.000000 0.235811 0.587811
0.222135 0.219441 0.571441
0.561121 0.203070 0.555070
0.900107 0.186700 0.538700
1.000000 0.170330 0.522330
0.000000 0.532740 0.532740
0.166514 0.516370 0.516370
0.505500 0.500000 0.500000
0.844486 0.483630 0.483630
1.000000 0.467260 0.467260
0.000000 0.829670 0.477670
0.110893 0.813300 0.461300
0.449879 0.796930 0.444930
0.788865 0.780559 0.428559
1.000000 0.764189 0.412189
0.000000 1.000000 0.422600
0.055272 1.000000 0.406229
0.394258 1.000000 0.389859
0.733244 1.000000 0.373489
1.000000 1.000000 0.357119
0.000000 0.000000 0.989322
0.272141 0.000000 0.972952
0.611127 0.000000 0.956581
0.950113 0.000000 0.940211
1.000000 0.000000 0.923841
0.000000 0.230251 0.934251
0.216520 0.213881 0.917881
0.555506 0.197511 0.901511
0.894492 0.181141 0.885141
1.000000 0.164771 0.868771
0.000000 0.527181 0.879181
0.160899 0.510811 0.862811
0.499885 0.494441 0.846441
0.838871 0.478070 0.830070
1.000000 0.461700 0.813700
0.000000 0.824111 0.824111
0.105278 0.807740 0.807740
0.444264 0.791370 0.791370
0.783250 0.775000 0.775000
1.000000 0.758630 0.758630
0.000000 1.000000 0.769040
0.049657 1.000000 0.752670
0.388643 1.000000 0.736300
0.727629 1.000000 0.719930
1.000000 1.000000 0.703559
0.000000 0.000000 1.000000
0.266526 0.000000 1.000000
0.605512 0.000000 1.000000
0.944498 0.000000 1.000000
1.000000 0.000000 1.000000
0.000000 0.224692 1.000000
0.210905 0.208322 1.000000
0.549891 0.191952 1.000000
0.888877 0.175581 1.000000
1.000000 0.159211 1.000000
0.000000 0.521622 1.000000
0.155284 0.505251 1.000000
0.494270 0.488881 1.000000
0.833256 0.472511 1.000000
1.000000 0.456141 1.000000
0.000000 0.818551 1.000000
0.099663 0.802181 1.000000
0.438649 0.785811 1.000000
0.777635 0.769441 1.000000
1.000000 0.753070 1.000000
0.000000 1.000000 1.000000
0.044042 1.000000 1.000000
0.383028 1.000000 1.000000
0.722014 1.000000 1.000000
1.000000 1.000000 1.000000
