app/public/luts/vivid-anime.cube
TITLE "Vivid Anime"
LUT_3D_SIZE 9
DOMAIN_MIN 0.0 0.0 0.0
DOMAIN_MAX 1.0 1.0 1.0
0.000000 0.000000 0.000000
0.119493 0.000000 0.000000
0.288986 0.000000 0.000000
0.458479 0.000000 0.000000
0.627972 0.000000 0.000000
0.797465 0.000000 0.000000
0.966958 0.000000 0.000000
1.000000 0.000000 0.000000
1.000000 0.000000 0.000000
0.000000 0.098465 0.000000
0.091682 0.090280 0.000000
0.261176 0.082095 0.000000
0.430669 0.073909 0.000000
0.600162 0.065724 0.000000
0.769655 0.057539 0.000000
0.939148 0.049354 0.000000
1.000000 0.041169 0.000000
1.000000 0.032984 0.000000
0.000000 0.246930 0.000000
0.063872 0.238745 0.000000
0.233365 0.230559 0.000000
0.402858 0.222374 0.000000
0.572351 0.214189 0.000000
0.741844 0.206004 0.000000
0.911337 0.197819 0.000000
1.000000 0.189634 0.000000
1.000000 0.181449 0.000000
0.000000 0.395394 0.000000
0.036061 0.387209 0.000000
0.205554 0.379024 0.000000
0.375047 0.370839 0.000000
0.544541 0.362654 0.000000
0.714034 0.354469 0.000000
0.883527 0.346284 0.000000
1.000000 0.338099 0.000000
1.000000 0.329914 0.000000
0.000000 0.543859 0.000000
0.008251 0.535674 0.000000
0.177744 0.527489 0.000000
0.347237 0.519304 0.000000
0.516730 0.511119 0.000000
0.686223 0.502934 0.000000
0.855716 0.494749 0.000000
1.000000 0.486563 0.000000
1.000000 0.478378 0.000000
0.000000 0.692324 0.000000
0.000000 0.684139 0.000000
0.149933 0.675954 0.000000
0.319426 0.667769 0.000000
0.488919 0.659584 0.000000
0.658412 0.651399 0.000000
0.827906 0.643213 0.000000
0.997399 0.635028 0.000000
1.000000 0.626843 0.000000
0.000000 0.840789 0.000000
0.000000 0.832604 0.000000
0.122123 0.824419 0.000000
0.291616 0.816234 0.000000
0.461109 0.808048 0.000000
0.630602 0.799863 0.000000
0.800095 0.791678 0.000000
0.969588 0.783493 0.000000
1.000000 0.775308 0.000000
0.000000 0.989254 0.000000
0.000000 0.981069 0.000000
0.094312 0.972883 0.000000
0.263805 0.964698 0.000000
0.433298 0.956513 0.000000
0.602791 0.948328 0.000000
0.772284 0.940143 0.000000
0.941777 0.931958 0.000000
1.000000 0.923773 0.000000
0.000000 1.000000 0.000000
0.000000 1.000000 0.000000
0.066502 1.000000 0.000000
0.235995 1.000000 0.000000
0.405488 1.000000 0.000000
0.574981 1.000000 0.000000
0.744474 1.000000 0.000000
0.913967 1.000000 0.000000
1.000000 1.000000 0.000000
0.000000 0.000000 0.123220
0.116686 0.000000 0.115035
0.286179 0.000000 0.106850
0.455672 0.000000 0.098665
0.625165 0.000000 0.090480
0.794658 0.000000 0.082295
0.964151 0.000000 0.074110
1.000000 0.000000 0.065925
1.000000 0.000000 0.057739
0.000000 0.095685 0.095685
0.088875 0.087500 0.087500
0.258368 0.079315 0.079315
0.427861 0.071130 0.071130
0.597354 0.062945 0.062945
0.766847 0.054760 0.054760
0.936340 0.046574 0.046574
1.000000 0.038389 0.038389
1.000000 0.030204 0.030204
0.000000 0.244150 0.068150
0.061064 0.235965 0.059965
0.230557 0.227780 0.051780
0.400051 0.219595 0.043595
0.569544 0.211409 0.035409
0.739037 0.203224 0.027224
0.908530 0.195039 0.019039
1.000000 0.186854 0.010854
1.000000 0.178669 0.002669
0.000000 0.392615 0.040615
0.033254 0.384430 0.032430
0.202747 0.376244 0.024244
0.372240 0.368059 0.016059
0.541733 0.359874 0.007874
0.711226 0.351689 0.000000
0.880719 0.343504 0.000000
1.000000 0.335319 0.000000
1.000000 0.327134 0.000000
0.000000 0.541079 0.013079
0.005443 0.532894 0.004894
0.174936 0.524709 0.000000
0.344429 0.516524 0.000000
0.513922 0.508339 0.000000
0.683416 0.500154 0.000000
0.852909 0.491969 0.000000
1.000000 0.483784 0.000000
1.000000 0.475599 0.000000
0.000000 0.689544 0.000000
0.000000 0.681359 0.000000
0.147126 0.673174 0.000000
0.316619 0.664989 0.000000
0.486112 0.656804 0.000000
0.655605 0.648619 0.000000
0.825098 0.640434 0.000000
0.994591 0.632249 0.000000
1.000000 0.624063 0.000000
0.000000 0.838009 0.000000
0.000000 0.829824 0.000000
0.119315 0.821639 0.000000
0.288808 0.813454 0.000000
0.458301 0.805269 0.000000
0.627794 0.797084 0.000000
0.797287 0.788899 0.000000
0.966781 0.780713 0.000000
1.000000 0.772528 0.000000
0.000000 0.986474 0.000000
0.000000 0.978289 0.000000
0.091505 0.970104 0.000000
0.260998 0.961919 0.000000
0.430491 0.953734 0.000000
0.599984 0.945548 0.000000
0.769477 0.937363 0.000000
0.938970 0.929178 0.000000
1.000000 0.920993 0.000000
0.000000 1.000000 0.000000
0.000000 1.000000 0.000000
0.063694 1.000000 0.000000
0.233187 1.000000 0.000000
0.402680 1.000000 0.000000
0.572173 1.000000 0.000000
0.741666 1.000000 0.000000
0.911159 1.000000 0.000000
1.000000 1.000000 0.000000
0.000000 0.000000 0.296441
0.113878 0.000000 0.288255
0.283371 0.000000 0.280070
0.452864 0.000000 0.271885
0.622357 0.000000 0.263700
0.791850 0.000000 0.255515
0.961343 0.000000 0.247330
1.000000 0.000000 0.239145
1.000000 0.000000 0.230960
0.000000 0.092905 0.268905
0.086068 0.084720 0.260720
0.255561 0.076535 0.252535
0.425054 0.068350 0.244350
0.594547 0.060165 0.236165
0.764040 0.051980 0.227980
0.933533 0.043795 0.219795
1.000000 0.035610 0.211610
1.000000 0.027425 0.203425
0.000000 0.241370 0.241370
0.058257 0.233185 0.233185
0.227750 0.225000 0.225000
0.397243 0.216815 0.216815
0.566736 0.208630 0.208630
0.736229 0.200445 0.200445
0.905722 0.192260 0.192260
1.000000 0.184074 0.184074
1.000000 0.175889 0.175889
0.000000 0.389835 0.213835
0.030446 0.381650 0.205650
0.199939 0.373465 0.197465
0.369432 0.365280 0.189280
0.538926 0.357095 0.181095
0.708419 0.348909 0.172909
0.877912 0.340724 0.164724
1.000000 0.332539 0.156539
1.000000 0.324354 0.148354
0.000000 0.538300 0.186300
0.002636 0.530115 0.178115
0.172129 0.521930 0.169930
0.341622 0.513745 0.161745
0.511115 0.505559 0.153559
0.680608 0.497374 0.145374
0.850101 0.489189 0.137189
1.000000 0.481004 0.129004
1.000000 0.472819 0.120819
0.000000 0.686765 0.158765
0.000000 0.678580 0.150579
0.144318 0.670394 0.142394
0.313811 0.662209 0.134209
0.483304 0.654024 0.126024
0.652797 0.645839 0.117839
0.822291 0.637654 0.109654
0.991784 0.629469 0.101469
1.000000 0.621284 0.093284
0.000000 0.835229 0.131229
0.000000 0.827044 0.123044
0.116508 0.818859 0.114859
0.286001 0.810674 0.106674
0.455494 0.802489 0.098489
0.624987 0.794304 0.090304
0.794480 0.786119 0.082119
0.963973 0.777934 0.073934
1.000000 0.769749 0.065749
0.000000 0.983694 0.103694
0.000000 0.975509 0.095509
0.088697 0.967324 0.087324
0.258190 0.959139 0.079139
0.427683 0.950954 0.070954
0.597176 0.942769 0.062769
0.766669 0.934584 0.054584
0.936162 0.926399 0.046399
1.000000 0.918213 0.038213
0.000000 1.000000 0.076159
0.000000 1.000000 0.067974
0.060887 1.000000 0.059789
0.230380 1.000000 0.051604
0.399873 1.000000 0.043419
0.569366 1.000000 0.035233
0.738859 1.000000 0.027048
0.908352 1.000000 0.018863
1.000000 1.000000 0.010678
0.000000 0.000000 0.469661
0.111071 0.000000 0.461476
0.280564 0.000000 0.453291
0.450057 0.000000 0.445106
0.619550 0.000000 0.436921
0.789043 0.000000 0.428735
0.958536 0.000000 0.420550
1.000000 0.000000 0.412365
1.000000 0.000000 0.404180
0.000000 0.090126 0.442126
0.083260 0.081941 0.433941
0.252753 0.073755 0.425755
0.422246 0.065570 0.417570
0.591739 0.057385 0.409385
0.761232 0.049200 0.401200
0.930725 0.041015 0.393015
1.000000 0.032830 0.384830
1.000000 0.024645 0.376645
0.000000 0.238590 0.414591
0.055449 0.230405 0.406405
0.224943 0.222220 0.398220
0.394436 0.214035 0.390035
0.563929 0.205850 0.381850
0.733422 0.197665 0.373665
0.902915 0.189480 0.365480
1.000000 0.181295 0.357295
1.000000 0.173110 0.349110
0.000000 0.387055 0.387055
0.027639 0.378870 0.378870
0.197132 0.370685 0.370685
0.366625 0.362500 0.362500
0.536118 0.354315 0.354315
0.705611 0.346130 0.346130
0.875104 0.337945 0.337945
1.000000 0.329760 0.329760
1.000000 0.321574 0.321574
0.000000 0.535520 0.359520
0.000000 0.527335 0.351335
0.169321 0.519150 0.343150
0.338814 0.510965 0.334965
0.508307 0.502780 0.326780
0.677801 0.494595 0.318595
0.847294 0.486409 0.310409
1.000000 0.478224 0.302224
1.000000 0.470039 0.294039
0.000000 0.683985 0.331985
0.000000 0.675800 0.323800
0.141511 0.667615 0.315615
0.311004 0.659430 0.307430
0.480497 0.651245 0.299245
0.649990 0.643059 0.291059
0.819483 0.634874 0.282874
0.988976 0.626689 0.274689
1.000000 0.618504 0.266504
0.000000 0.832450 0.304450
0.000000 0.824265 0.296265
0.113700 0.816079 0.288079
0.283193 0.807894 0.279894
0.452686 0.799709 0.271709
0.622179 0.791524 0.263524
0.791672 0.783339 0.255339
0.961166 0.775154 0.247154
1.000000 0.766969 0.238969
0.000000 0.980915 0.276915
0.000000 0.972729 0.268729
0.085890 0.964544 0.260544
0.255383 0.956359 0.252359
0.424876 0.948174 0.244174
0.594369 0.939989 0.235989
0.763862 0.931804 0.227804
0.933355 0.923619 0.219619
1.000000 0.915434 0.211434
0.000000 1.000000 0.249379
0.000000 1.000000 0.241194
0.058079 1.000000 0.233009
0.227572 1.000000 0.224824
0.397065 1.000000 0.216639
0.566558 1.000000 0.208454
0.736051 1.000000 0.200269
0.905544 1.000000 0.192084
1.000000 1.000000 0.183899
0.000000 0.000000 0.642881
0.108263 0.000000 0.634696
0.277756 0.000000 0.626511
0.447249 0.000000 0.618326
0.616742 0.000000 0.610141
0.786235 0.000000 0.601956
0.955728 0.000000 0.593771
1.000000 0.000000 0.585585
1.000000 0.000000 0.577400
0.000000 0.087346 0.615346
0.080453 0.079161 0.607161
0.249946 0.070976 0.598976
0.419439 0.062791 0.590791
0.588932 0.054606 0.582606
0.758425 0.046420 0.574421
0.927918 0.038235 0.566235
1.000000 0.030050 0.558050
1.000000 0.021865 0.549865
0.000000 0.235811 0.587811
0.052642 0.227626 0.579626
0.222135 0.219441 0.571441
0.391628 0.211255 0.563255
0.561121 0.203070 0.555070
0.730614 0.194885 0.546885
0.900107 0.186700 0.538700
1.000000 0.178515 0.530515
1.000000 0.170330 0.522330
0.000000 0.384276 0.560276
0.024831 0.376090 0.552091
0.194324 0.367905 0.543905
0.363818 0.359720 0.535720
0.533311 0.351535 0.527535
0.702804 0.343350 0.519350
0.872297 0.335165 0.511165
1.000000 0.326980 0.502980
1.000000 0.318795 0.494795
0.000000 0.532740 0.532740
0.000000 0.524555 0.524555
0.166514 0.516370 0.516370
0.336007 0.508185 0.508185
0.505500 0.500000 0.500000
0.674993 0.491815 0.491815
0.844486 0.483630 0.483630
1.000000 0.475445 0.475445
1.000000 0.467260 0.467260
0.000000 0.681205 0.505205
0.000000 0.673020 0.497020
0.138703 0.664835 0.488835
0.308196 0.656650 0.480650
0.477689 0.648465 0.472465
0.647182 0.640280 0.464280
0.816676 0.632095 0.456095
0.986169 0.623910 0.447909
1.000000 0.615724 0.439724
0.000000 0.829670 0.477670
0.000000 0.821485 0.469485
0.110893 0.813300 0.461300
0.280386 0.805115 0.453115
0.449879 0.796930 0.444930
0.619372 0.788744 0.436744
0.788865 0.780559 0.428559
0.958358 0.772374 0.420374
1.000000 0.764189 0.412189
0.000000 0.978135 0.450135
0.000000 0.969950 0.441950
0.083082 0.961765 0.433765
0.252575 0.953580 0.425579
0.422068 0.945394 0.417394
0.591561 0.937209 0.409209
0.761054 0.929024 0.401024
0.930547 0.920839 0.392839
1.000000 0.912654 0.384654
0.000000 1.000000 0.422600
0.000000 1.000000 0.414414
0.055272 1.000000 0.406229
0.224765 1.000000 0.398044
0.394258 1.000000 0.389859
0.563751 1.000000 0.381674
0.733244 1.000000 0.373489
0.902737 1.000000 0.365304
1.000000 1.000000 0.357119
0.000000 0.000000 0.816102
0.105456 0.000000 0.807916
0.274949 0.000000 0.799731
0.444442 0.000000 0.791546
0.613935 0.000000 0.783361
0.783428 0.000000 0.775176
0.952921 0.000000 0.766991
1.000000 0.000000 0.758806
1.000000 0.000000 0.750621
0.000000 0.084566 0.788566
0.077645 0.076381 0.780381
0.247138 0.068196 0.772196
0.416631 0.060011 0.764011
0.586124 0.051826 0.755826
0.755617 0.043641 0.747641
0.925110 0.035456 0.739456
1.000000 0.027271 0.731271
1.000000 0.019085 0.723086
0.000000 0.233031 0.761031
0.049834 0.224846 0.752846
0.219328 0.216661 0.744661
0.388821 0.208476 0.736476
0.558314 0.200291 0.728291
0.727807 0.192106 0.720106
0.897300 0.183920 0.711921
1.000000 0.175735 0.703735
1.000000 0.167550 0.695550
0.000000 0.381496 0.733496
0.022024 0.373311 0.725311
0.191517 0.365126 0.717126
0.361010 0.356941 0.708941
0.530503 0.348755 0.700755
0.699996 0.340570 0.692570
0.869489 0.332385 0.684385
1.000000 0.324200 0.676200
1.000000 0.316015 0.668015
0.000000 0.529961 0.705961
0.000000 0.521776 0.697776
0.163706 0.513591 0.689590
0.333199 0.505405 0.681405
0.502693 0.497220 0.673220
0.672186 0.489035 0.665035
0.841679 0.480850 0.656850
1.000000 0.472665 0.648665
1.000000 0.464480 0.640480
0.000000 0.678426 0.678426
0.000000 0.670240 0.670240
0.135896 0.662055 0.662055
0.305389 0.653870 0.653870
0.474882 0.645685 0.645685
0.644375 0.637500 0.637500
0.813868 0.629315 0.629315
0.983361 0.621130 0.621130
1.000000 0.612945 0.612945
0.000000 0.826890 0.650890
0.000000 0.818705 0.642705
0.108085 0.810520 0.634520
0.277578 0.802335 0.626335
0.447071 0.794150 0.618150
0.616564 0.785965 0.609965
0.786057 0.777780 0.601780
0.955551 0.769595 0.593595
1.000000 0.761410 0.585409
0.000000 0.975355 0.623355
0.000000 0.967170 0.615170
0.080275 0.958985 0.606985
0.249768 0.950800 0.598800
0.419261 0.942615 0.590615
0.588754 0.934430 0.582430
0.758247 0.926245 0.574245
0.927740 0.918059 0.566059
1.000000 0.909874 0.557874
0.000000 1.000000 0.595820
0.000000 1.000000 0.587635
0.052464 1.000000 0.579450
0.221957 1.000000 0.571265
0.391450 1.000000 0.563079
0.560943 1.000000 0.554894
0.730436 1.000000 0.546709
0.899929 1.000000 0.538524
1.000000 1.000000 0.530339
0.000000 0.000000 0.989322
0.102648 0.000000 0.981137
0.272141 0.000000 0.972952
0.441634 0.000000 0.964767
0.611127 0.000000 0.956581
0.780620 0.000000 0.948396
0.950113 0.000000 0.940211
1.000000 0.000000 0.932026
1.000000 0.000000 0.923841
0.000000 0.081787 0.961787
0.074838 0.073601 0.953601
0.244331 0.065416 0.945416
0.413824 0.057231 0.937231
0.583317 0.049046 0.929046
0.752810 0.040861 0.920861
0.922303 0.032676 0.912676
1.000000 0.024491 0.904491
1.000000 0.016306 0.896306
0.000000 0.230251 0.934251
0.047027 0.222066 0.926066
0.216520 0.213881 0.917881
0.386013 0.205696 0.909696
0.555506 0.197511 0.901511
0.724999 0.189326 0.893326
0.894492 0.181141 0.885141
1.000000 0.172956 0.876956
1.000000 0.164771 0.868771
0.000000 0.378716 0.906716
0.019216 0.370531 0.898531
0.188709 0.362346 0.890346
0.358203 0.354161 0.882161
0.527696 0.345976 0.873976
0.697189 0.337791 0.865791
0.866682 0.329606 0.857606
1.000000 0.321420 0.849421
1.000000 0.313235 0.841235
0.000000 0.527181 0.879181
0.000000 0.518996 0.870996
0.160899 0.510811 0.862811
0.330392 0.502626 0.854626
0.499885 0.494441 0.846441
0.669378 0.486255 0.838255
0.838871 0.478070 0.830070
1.000000 0.469885 0.821885
1.000000 0.461700 0.813700
0.000000 0.675646 0.851646
0.000000 0.667461 0.843461
0.133088 0.659276 0.835276
0.302581 0.651091 0.827091
0.472074 0.642905 0.818905
0.641568 0.634720 0.810720
0.811061 0.626535 0.802535
0.980554 0.618350 0.794350
1.000000 0.610165 0.786165
0.000000 0.824111 0.824111
0.000000 0.815925 0.815925
0.105278 0.807740 0.807740
0.274771 0.799555 0.799555
0.444264 0.791370 0.791370
0.613757 0.783185 0.783185
0.783250 0.775000 0.775000
0.952743 0.766815 0.766815
1.000000 0.758630 0.758630
0.000000 0.972575 0.796575
0.000000 0.964390 0.788390
0.077467 0.956205 0.780205
0.246960 0.948020 0.772020
0.416453 0.939835 0.763835
0.585946 0.931650 0.755650
0.755439 0.923465 0.747465
0.924932 0.915280 0.739280
1.000000 0.907095 0.731095
0.000000 1.000000 0.769040
0.000000 1.000000 0.760855
0.049657 1.000000 0.752670
0.219150 1.000000 0.744485
0.388643 1.000000 0.736300
0.558136 1.000000 0.728115
0.727629 1.000000 0.719930
0.897122 1.000000 0.711745
1.000000 1.000000 0.703559
0.000000 0.000000 1.000000
0.099841 0.000000 1.000000
0.269334 0.000000 1.000000
0.438827 0.000000 1.000000
0.608320 0.000000 1.000000
0.777813 0.000000 1.000000
0.947306 0.000000 1.000000
1.000000 0.000000 1.000000
1.000000 0.000000 1.000000
0.000000 0.079007 1.000000
0.072030 0.070822 1.000000
0.241523 0.062637 1.000000
0.411016 0.054452 1.000000
0.580509 0.046266 1.000000
0.750002 0.038081 1.000000
0.919495 0.029896 1.000000
1.000000 0.021711 1.000000
1.000000 0.013526 1.000000
0.000000 0.227472 1.000000
0.044219 0.219287 1.000000
0.213713 0.211101 1.000000
0.383206 0.202916 1.000000
0.552699 0.194731 1.000000
0.722192 0.186546 1.000000
0.891685 0.178361 1.000000
1.000000 0.170176 1.000000
1.000000 0.161991 1.000000
0.000000 0.375937 1.000000
0.016409 0.367751 1.000000
0.185902 0.359566 1.000000
0.355395 0.351381 1.000000
0.524888 0.343196 1.000000
0.694381 0.335011 1.000000
0.863874 0.326826 1.000000
1.000000 0.318641 1.000000
1.000000 0.310456 1.000000
0.000000 0.524401 1.000000
0.000000 0.516216 1.000000
0.158091 0.508031 1.000000
0.327584 0.499846 1.000000
0.497078 0.491661 1.000000
0.666571 0.483476 1.000000
0.836064 0.475291 1.000000
1.000000 0.467106 0.995106
1.000000 0.458920 0.986921
0.000000 0.672866 1.000000
0.000000 0.664681 1.000000
0.130281 0.656496 1.000000
0.299774 0.648311 1.000000
0.469267 0.640126 0.992126
0.638760 0.631941 0.983941
0.808253 0.623756 0.975755
0.977746 0.615570 0.967570
1.000000 0.607385 0.959385
0.000000 0.821331 0.997331
0.000000 0.813146 0.989146
0.102470 0.804961 0.980961
0.271963 0.796776 0.972776
0.441456 0.788590 0.964591
0.610949 0.780405 0.956405
0.780443 0.772220 0.948220
0.949936 0.764035 0.940035
1.000000 0.755850 0.931850
0.000000 0.969796 0.969796
0.000000 0.961611 0.961611
0.074660 0.953426 0.953426
0.244153 0.945240 0.945240
0.413646 0.937055 0.937055
0.583139 0.928870 0.928870
0.752632 0.920685 0.920685
0.922125 0.912500 0.912500
1.000000 0.904315 0.904315
0.000000 1.000000 0.942261
0.000000 1.000000 0.934075
0.046849 1.000000 0.925890
0.216342 1.000000 0.917705
0.385835 1.000000 0.909520
0.555328 1.000000 0.901335
0.724821 1.000000 0.893150
0.894314 1.000000 0.884965
1.000000 1.000000 0.876780
0.000000 0.000000 1.000000
0.097033 0.000000 1.000000
0.266526 0.000000 1.000000
0.436019 0.000000 1.000000
0.605512 0.000000 1.000000
0.775005 0.000000 1.000000
0.944498 0.000000 1.000000
1.000000 0.000000 1.000000
1.000000 0.000000 1.000000
0.000000 0.076227 1.000000
0.069223 0.068042 1.000000
0.238716 0.059857 1.000000
0.408209 0.051672 1.000000
0.577702 0.043487 1.000000
0.747195 0.035302 1.000000
0.916688 0.027117 1.000000
1.000000 0.018931 1.000000
1.000000 0.010746 1.000000
0.000000 0.224692 1.000000
0.041412 0.216507 1.000000
0.210905 0.208322 1.000000
0.380398 0.200137 1.000000
0.549891 0.191952 1.000000
0.719384 0.183766 1.000000
0.888877 0.175581 1.000000
1.000000 0.167396 1.000000
1.000000 0.159211 1.000000
0.000000 0.373157 1.000000
0.013601 0.364972 1.000000
0.183094 0.356787 1.000000
0.352588 0.348602 1.000000
0.522081 0.340416 1.000000
0.691574 0.332231 1.000000
0.861067 0.324046 1.000000
1.000000 0.315861 1.000000
1.000000 0.307676 1.000000
0.000000 0.521622 1.000000
0.000000 0.513436 1.000000
0.155284 0.505251 1.000000
0.324777 0.497066 1.000000
0.494270 0.488881 1.000000
0.663763 0.480696 1.000000
0.833256 0.472511 1.000000
1.000000 0.464326 1.000000
1.000000 0.456141 1.000000
0.000000 0.670086 1.000000
0.000000 0.661901 1.000000
0.127473 0.653716 1.000000
0.296966 0.645531 1.000000
0.466459 0.637346 1.000000
0.635953 0.629161 1.000000
0.805446 0.620976 1.000000
0.974939 0.612791 1.000000
1.000000 0.604606 1.000000
0.000000 0.818551 1.000000
0.000000 0.810366 1.000000
0.099663 0.802181 1.000000
0.269156 0.793996 1.000000
0.438649 0.785811 1.000000
0.608142 0.777626 1.000000
0.777635 0.769441 1.000000
0.947128 0.761255 1.000000
1.000000 0.753070 1.000000
0.000000 0.967016 1.000000
0.000000 0.958831 1.000000
0.071852 0.950646 1.000000
0.241345 0.942461 1.000000
0.410838 0.934276 1.000000
0.580331 0.926091 1.000000
0.749824 0.917905 1.000000
0.919318 0.909720 1.000000
1.000000 0.901535 1.000000
0.000000 1.000000 1.000000
0.000000 1.000000 1.000000
0.044042 1.000000 1.000000
0.213535 1.000000 1.000000
0.383028 1.000000 1.000000
0.552521 1.000000 1.000000
0.722014 1.000000 1.000000
0.891507 1.000000 1.000000
1.000000 1.000000 1.000000
