app/public/luts/vivid-anime.cube
TITLE "Vivid Anime"
LUT_3D_SIZE 33
DOMAIN_MIN 0.0 0.0 0.0
DOMAIN_MAX 1.0 1.0 1.0
0.000000 0.000000 0.000000
0.000000 0.000000 0.000000
0.034747 0.000000 0.000000
0.077120 0.000000 0.000000
0.119493 0.000000 0.000000
0.161866 0.000000 0.000000
0.204240 0.000000 0.000000
0.246613 0.000000 0.000000
0.288986 0.000000 0.000000
0.331359 0.000000 0.000000
0.373733 0.000000 0.000000
0.416106 0.000000 0.000000
0.458479 0.000000 0.000000
0.500852 0.000000 0.000000
0.543226 0.000000 0.000000
0.585599 0.000000 0.000000
0.627972 0.000000 0.000000
0.670345 0.000000 0.000000
0.712719 0.000000 0.000000
0.755092 0.000000 0.000000
0.797465 0.000000 0.000000
0.839839 0.000000 0.000000
0.882212 0.000000 0.000000
0.924585 0.000000 0.000000
0.966958 0.000000 0.000000
1.000000 0.000000 0.000000
1.000000 0.000000 0.000000
1.000000 0.000000 0.000000
1.000000 0.000000 0.000000
1.000000 0.000000 0.000000
1.000000 0.000000 0.000000
1.000000 0.000000 0.000000
1.000000 0.000000 0.000000
0.000000 0.000000 0.000000
0.000000 0.000000 0.000000
0.027794 0.000000 0.000000
0.070167 0.000000 0.000000
0.112540 0.000000 0.000000
0.154914 0.000000 0.000000
0.197287 0.000000 0.000000
0.239660 0.000000 0.000000
0.282033 0.000000 0.000000
0.324407 0.000000 0.000000
0.366780 0.000000 0.000000
0.409153 0.000000 0.000000
0.451527 0.000000 0.000000
0.493900 0.000000 0.000000
0.536273 0.000000 0.000000
0.578646 0.000000 0.000000
0.621020 0.000000 0.000000
0.663393 0.000000 0.000000
0.705766 0.000000 0.000000
0.748139 0.000000 0.000000
0.790513 0.000000 0.000000
0.832886 0.000000 0.000000
0.875259 0.000000 0.000000
0.917632 0.000000 0.000000
0.960006 0.000000 0.000000
1.000000 0.000000 0.000000
1.000000 0.000000 0.000000
1.000000 0.000000 0.000000
1.000000 0.000000 0.000000
1.000000 0.000000 0.000000
1.000000 0.000000 0.000000
1.000000 0.000000 0.000000
1.000000 0.000000 0.000000
0.000000 0.024232 0.000000
0.000000 0.022186 0.000000
0.020841 0.020140 0.000000
0.063215 0.018094 0.000000
0.105588 0.016047 0.000000
0.147961 0.014001 0.000000
0.190334 0.011955 0.000000
0.232708 0.009908 0.000000
0.275081 0.007862 0.000000
0.317454 0.005816 0.000000
0.359827 0.003770 0.000000
0.402201 0.001723 0.000000
0.444574 0.000000 0.000000
0.486947 0.000000 0.000000
0.529320 0.000000 0.000000
0.571694 0.000000 0.000000
0.614067 0.000000 0.000000
0.656440 0.000000 0.000000
0.698813 0.000000 0.000000
0.741187 0.000000 0.000000
0.783560 0.000000 0.000000
0.825933 0.000000 0.000000
0.868306 0.000000 0.000000
0.910680 0.000000 0.000000
0.953053 0.000000 0.000000
0.995426 0.000000 0.000000
1.000000 0.000000 0.000000
1.000000 0.000000 0.000000
1.000000 0.000000 0.000000
1.000000 0.000000 0.000000
1.000000 0.000000 0.000000
1.000000 0.000000 0.000000
1.000000 0.000000 0.000000
0.000000 0.061349 0.000000
0.000000 0.059302 0.000000
0.013889 0.057256 0.000000
0.056262 0.055210 0.000000
0.098635 0.053163 0.000000
0.141008 0.051117 0.000000
0.183382 0.049071 0.000000
0.225755 0.047025 0.000000
0.268128 0.044978 0.000000
0.310501 0.042932 0.000000
0.352875 0.040886 0.000000
0.395248 0.038840 0.000000
0.437621 0.036793 0.000000
0.479994 0.034747 0.000000
0.522368 0.032701 0.000000
0.564741 0.030654 0.000000
0.607114 0.028608 0.000000
0.649488 0.026562 0.000000
0.691861 0.024516 0.000000
0.734234 0.022469 0.000000
0.776607 0.020423 0.000000
0.818981 0.018377 0.000000
0.861354 0.016331 0.000000
0.903727 0.014284 0.000000
0.946100 0.012238 0.000000
0.988474 0.010192 0.000000
1.000000 0.008145 0.000000
1.000000 0.006099 0.000000
1.000000 0.004053 0.000000
1.000000 0.002007 0.000000
1.000000 0.000000 0.000000
1.000000 0.000000 0.000000
1.000000 0.000000 0.000000
0.000000 0.098465 0.000000
0.000000 0.096419 0.000000
0.006936 0.094372 0.000000
0.049309 0.092326 0.000000
0.091682 0.090280 0.000000
0.134056 0.088233 0.000000
0.176429 0.086187 0.000000
0.218802 0.084141 0.000000
0.261176 0.082095 0.000000
0.303549 0.080048 0.000000
0.345922 0.078002 0.000000
0.388295 0.075956 0.000000
0.430669 0.073909 0.000000
0.473042 0.071863 0.000000
0.515415 0.069817 0.000000
0.557788 0.067771 0.000000
0.600162 0.065724 0.000000
0.642535 0.063678 0.000000
0.684908 0.061632 0.000000
0.727281 0.059586 0.000000
0.769655 0.057539 0.000000
0.812028 0.055493 0.000000
0.854401 0.053447 0.000000
0.896774 0.051400 0.000000
0.939148 0.049354 0.000000
0.981521 0.047308 0.000000
1.000000 0.045262 0.000000
1.000000 0.043215 0.000000
1.000000 0.041169 0.000000
1.000000 0.039123 0.000000
1.000000 0.037077 0.000000
1.000000 0.035030 0.000000
1.000000 0.032984 0.000000
0.000000 0.135581 0.000000
0.000000 0.133535 0.000000
0.000000 0.131488 0.000000
0.042357 0.129442 0.000000
0.084730 0.127396 0.000000
0.127103 0.125350 0.000000
0.169476 0.123303 0.000000
0.211850 0.121257 0.000000
0.254223 0.119211 0.000000
0.296596 0.117165 0.000000
0.338969 0.115118 0.000000
0.381343 0.113072 0.000000
0.423716 0.111026 0.000000
0.466089 0.108979 0.000000
0.508462 0.106933 0.000000
0.550836 0.104887 0.000000
0.593209 0.102841 0.000000
0.635582 0.100794 0.000000
0.677956 0.098748 0.000000
0.720329 0.096702 0.000000
0.762702 0.094655 0.000000
0.805075 0.092609 0.000000
0.847449 0.090563 0.000000
0.889822 0.088517 0.000000
0.932195 0.086470 0.000000
0.974568 0.084424 0.000000
1.000000 0.082378 0.000000
1.000000 0.080332 0.000000
1.000000 0.078285 0.000000
1.000000 0.076239 0.000000
1.000000 0.074193 0.000000
1.000000 0.072146 0.000000
1.000000 0.070100 0.000000
0.000000 0.172697 0.000000
0.000000 0.170651 0.000000
0.000000 0.168605 0.000000
0.035404 0.166558 0.000000
0.077777 0.164512 0.000000
0.120150 0.162466 0.000000
0.162524 0.160420 0.000000
0.204897 0.158373 0.000000
0.247270 0.156327 0.000000
0.289644 0.154281 0.000000
0.332017 0.152234 0.000000
0.374390 0.150188 0.000000
0.416763 0.148142 0.000000
0.459137 0.146096 0.000000
0.501510 0.144049 0.000000
0.543883 0.142003 0.000000
0.586256 0.139957 0.000000
0.628630 0.137911 0.000000
0.671003 0.135864 0.000000
0.713376 0.133818 0.000000
0.755749 0.131772 0.000000
0.798123 0.129725 0.000000
0.840496 0.127679 0.000000
0.882869 0.125633 0.000000
0.925242 0.123587 0.000000
0.967616 0.121540 0.000000
1.000000 0.119494 0.000000
1.000000 0.117448 0.000000
1.000000 0.115401 0.000000
1.000000 0.113355 0.000000
1.000000 0.111309 0.000000
1.000000 0.109263 0.000000
1.000000 0.107216 0.000000
0.000000 0.209813 0.000000
0.000000 0.207767 0.000000
0.000000 0.205721 0.000000
0.028451 0.203675 0.000000
0.070825 0.201628 0.000000
0.113198 0.199582 0.000000
0.155571 0.197536 0.000000
0.197944 0.195489 0.000000
0.240318 0.193443 0.000000
0.282691 0.191397 0.000000
0.325064 0.189351 0.000000
0.367437 0.187304 0.000000
0.409811 0.185258 0.000000
0.452184 0.183212 0.000000
0.494557 0.181166 0.000000
0.536930 0.179119 0.000000
0.579304 0.177073 0.000000
0.621677 0.175027 0.000000
0.664050 0.172980 0.000000
0.706424 0.170934 0.000000
0.748797 0.168888 0.000000
0.791170 0.166842 0.000000
0.833543 0.164795 0.000000
0.875917 0.162749 0.000000
0.918290 0.160703 0.000000
0.960663 0.158657 0.000000
1.000000 0.156610 0.000000
1.000000 0.154564 0.000000
1.000000 0.152518 0.000000
1.000000 0.150471 0.000000
1.000000 0.148425 0.000000
1.000000 0.146379 0.000000
1.000000 0.144333 0.000000
0.000000 0.246930 0.000000
0.000000 0.244883 0.000000
0.000000 0.242837 0.000000
0.021499 0.240791 0.000000
0.063872 0.238745 0.000000
0.106245 0.236698 0.000000
0.148618 0.234652 0.000000
0.190992 0.232606 0.000000
0.233365 0.230559 0.000000
0.275738 0.228513 0.000000
0.318112 0.226467 0.000000
0.360485 0.224421 0.000000
0.402858 0.222374 0.000000
0.445231 0.220328 0.000000
0.487605 0.218282 0.000000
0.529978 0.216235 0.000000
0.572351 0.214189 0.000000
0.614724 0.212143 0.000000
0.657098 0.210097 0.000000
0.699471 0.208050 0.000000
0.741844 0.206004 0.000000
0.784217 0.203958 0.000000
0.826591 0.201912 0.000000
0.868964 0.199865 0.000000
0.911337 0.197819 0.000000
0.953710 0.195773 0.000000
0.996084 0.193726 0.000000
1.000000 0.191680 0.000000
1.000000 0.189634 0.000000
1.000000 0.187588 0.000000
1.000000 0.185541 0.000000
1.000000 0.183495 0.000000
1.000000 0.181449 0.000000
0.000000 0.284046 0.000000
0.000000 0.282000 0.000000
0.000000 0.279953 0.000000
0.014546 0.277907 0.000000
0.056919 0.275861 0.000000
0.099293 0.273814 0.000000
0.141666 0.271768 0.000000
0.184039 0.269722 0.000000
0.226412 0.267676 0.000000
0.268786 0.265629 0.000000
0.311159 0.263583 0.000000
0.353532 0.261537 0.000000
0.395905 0.259491 0.000000
0.438279 0.257444 0.000000
0.480652 0.255398 0.000000
0.523025 0.253352 0.000000
0.565398 0.251305 0.000000
0.607772 0.249259 0.000000
0.650145 0.247213 0.000000
0.692518 0.245167 0.000000
0.734892 0.243120 0.000000
0.777265 0.241074 0.000000
0.819638 0.239028 0.000000
0.862011 0.236981 0.000000
0.904385 0.234935 0.000000
0.946758 0.232889 0.000000
0.989131 0.230843 0.000000
1.000000 0.228796 0.000000
1.000000 0.226750 0.000000
1.000000 0.224704 0.000000
1.000000 0.222658 0.000000
1.000000 0.220611 0.000000
1.000000 0.218565 0.000000
0.000000 0.321162 0.000000
0.000000 0.319116 0.000000
0.000000 0.317069 0.000000
0.007593 0.315023 0.000000
0.049967 0.312977 0.000000
0.092340 0.310931 0.000000
0.134713 0.308884 0.000000
0.177086 0.306838 0.000000
0.219460 0.304792 0.000000
0.261833 0.302746 0.000000
0.304206 0.300699 0.000000
0.346580 0.298653 0.000000
0.388953 0.296607 0.000000
0.431326 0.294560 0.000000
0.473699 0.292514 0.000000
0.516073 0.290468 0.000000
0.558446 0.288422 0.000000
0.600819 0.286375 0.000000
0.643192 0.284329 0.000000
0.685566 0.282283 0.000000
0.727939 0.280236 0.000000
0.770312 0.278190 0.000000
0.812685 0.276144 0.000000
0.855059 0.274098 0.000000
0.897432 0.272051 0.000000
0.939805 0.270005 0.000000
0.982178 0.267959 0.000000
1.000000 0.265913 0.000000
1.000000 0.263866 0.000000
1.000000 0.261820 0.000000
1.000000 0.259774 0.000000
1.000000 0.257727 0.000000
1.000000 0.255681 0.000000
0.000000 0.358278 0.000000
0.000000 0.356232 0.000000
0.000000 0.354186 0.000000
0.000641 0.352139 0.000000
0.043014 0.350093 0.000000
0.085387 0.348047 0.000000
0.127761 0.346001 0.000000
0.170134 0.343954 0.000000
0.212507 0.341908 0.000000
0.254880 0.339862 0.000000
0.297254 0.337815 0.000000
0.339627 0.335769 0.000000
0.382000 0.333723 0.000000
0.424373 0.331677 0.000000
0.466747 0.329630 0.000000
0.509120 0.327584 0.000000
0.551493 0.325538 0.000000
0.593866 0.323492 0.000000
0.636240 0.321445 0.000000
0.678613 0.319399 0.000000
0.720986 0.317353 0.000000
0.763359 0.315306 0.000000
0.805733 0.313260 0.000000
0.848106 0.311214 0.000000
0.890479 0.309168 0.000000
0.932853 0.307121 0.000000
0.975226 0.305075 0.000000
1.000000 0.303029 0.000000
1.000000 0.300982 0.000000
1.000000 0.298936 0.000000
1.000000 0.296890 0.000000
1.000000 0.294844 0.000000
1.000000 0.292797 0.000000
0.000000 0.395394 0.000000
0.000000 0.393348 0.000000
0.000000 0.391302 0.000000
0.000000 0.389256 0.000000
0.036061 0.387209 0.000000
0.078435 0.385163 0.000000
0.120808 0.383117 0.000000
0.163181 0.381070 0.000000
0.205554 0.379024 0.000000
0.247928 0.376978 0.000000
0.290301 0.374932 0.000000
0.332674 0.372885 0.000000
0.375047 0.370839 0.000000
0.417421 0.368793 0.000000
0.459794 0.366747 0.000000
0.502167 0.364700 0.000000
0.544541 0.362654 0.000000
0.586914 0.360608 0.000000
0.629287 0.358561 0.000000
0.671660 0.356515 0.000000
0.714034 0.354469 0.000000
0.756407 0.352423 0.000000
0.798780 0.350376 0.000000
0.841153 0.348330 0.000000
0.883527 0.346284 0.000000
0.925900 0.344238 0.000000
0.968273 0.342191 0.000000
1.000000 0.340145 0.000000
1.000000 0.338099 0.000000
1.000000 0.336052 0.000000
1.000000 0.334006 0.000000
1.000000 0.331960 0.000000
1.000000 0.329914 0.000000
0.000000 0.432511 0.000000
0.000000 0.430464 0.000000
0.000000 0.428418 0.000000
0.000000 0.426372 0.000000
0.029109 0.424326 0.000000
0.071482 0.422279 0.000000
0.113855 0.420233 0.000000
0.156229 0.418187 0.000000
0.198602 0.416140 0.000000
0.240975 0.414094 0.000000
0.283348 0.412048 0.000000
0.325722 0.410002 0.000000
0.368095 0.407955 0.000000
0.410468 0.405909 0.000000
0.452841 0.403863 0.000000
0.495215 0.401816 0.000000
0.537588 0.399770 0.000000
0.579961 0.397724 0.000000
0.622334 0.395678 0.000000
0.664708 0.393631 0.000000
0.707081 0.391585 0.000000
0.749454 0.389539 0.000000
0.791827 0.387493 0.000000
0.834201 0.385446 0.000000
0.876574 0.383400 0.000000
0.918947 0.381354 0.000000
0.961321 0.379307 0.000000
1.000000 0.377261 0.000000
1.000000 0.375215 0.000000
1.000000 0.373169 0.000000
1.000000 0.371122 0.000000
1.000000 0.369076 0.000000
1.000000 0.367030 0.000000
0.000000 0.469627 0.000000
0.000000 0.467581 0.000000
0.000000 0.465534 0.000000
0.000000 0.463488 0.000000
0.022156 0.461442 0.000000
0.064529 0.459395 0.000000
0.106903 0.457349 0.000000
0.149276 0.455303 0.000000
0.191649 0.453257 0.000000
0.234022 0.451210 0.000000
0.276396 0.449164 0.000000
0.318769 0.447118 0.000000
0.361142 0.445072 0.000000
0.403515 0.443025 0.000000
0.445889 0.440979 0.000000
0.488262 0.438933 0.000000
0.530635 0.436886 0.000000
0.573009 0.434840 0.000000
0.615382 0.432794 0.000000
0.657755 0.430748 0.000000
0.700128 0.428701 0.000000
0.742502 0.426655 0.000000
0.784875 0.424609 0.000000
0.827248 0.422562 0.000000
0.869621 0.420516 0.000000
0.911995 0.418470 0.000000
0.954368 0.416424 0.000000
0.996741 0.414377 0.000000
1.000000 0.412331 0.000000
1.000000 0.410285 0.000000
1.000000 0.408239 0.000000
1.000000 0.406192 0.000000
1.000000 0.404146 0.000000
0.000000 0.506743 0.000000
0.000000 0.504697 0.000000
0.000000 0.502650 0.000000
0.000000 0.500604 0.000000
0.015203 0.498558 0.000000
0.057577 0.496512 0.000000
0.099950 0.494465 0.000000
0.142323 0.492419 0.000000
0.184697 0.490373 0.000000
0.227070 0.488327 0.000000
0.269443 0.486280 0.000000
0.311816 0.484234 0.000000
0.354190 0.482188 0.000000
0.396563 0.480141 0.000000
0.438936 0.478095 0.000000
0.481309 0.476049 0.000000
0.523683 0.474003 0.000000
0.566056 0.471956 0.000000
0.608429 0.469910 0.000000
0.650802 0.467864 0.000000
0.693176 0.465817 0.000000
0.735549 0.463771 0.000000
0.777922 0.461725 0.000000
0.820295 0.459679 0.000000
0.862669 0.457632 0.000000
0.905042 0.455586 0.000000
0.947415 0.453540 0.000000
0.989789 0.451494 0.000000
1.000000 0.449447 0.000000
1.000000 0.447401 0.000000
1.000000 0.445355 0.000000
1.000000 0.443308 0.000000
1.000000 0.441262 0.000000
0.000000 0.543859 0.000000
0.000000 0.541813 0.000000
0.000000 0.539767 0.000000
0.000000 0.537720 0.000000
0.008251 0.535674 0.000000
0.050624 0.533628 0.000000
0.092997 0.531582 0.000000
0.135371 0.529535 0.000000
0.177744 0.527489 0.000000
0.220117 0.525443 0.000000
0.262490 0.523396 0.000000
0.304864 0.521350 0.000000
0.347237 0.519304 0.000000
0.389610 0.517258 0.000000
0.431983 0.515211 0.000000
0.474357 0.513165 0.000000
0.516730 0.511119 0.000000
0.559103 0.509073 0.000000
0.601477 0.507026 0.000000
0.643850 0.504980 0.000000
0.686223 0.502934 0.000000
0.728596 0.500887 0.000000
0.770970 0.498841 0.000000
0.813343 0.496795 0.000000
0.855716 0.494749 0.000000
0.898089 0.492702 0.000000
0.940463 0.490656 0.000000
0.982836 0.488610 0.000000
1.000000 0.486563 0.000000
1.000000 0.484517 0.000000
1.000000 0.482471 0.000000
1.000000 0.480425 0.000000
1.000000 0.478378 0.000000
0.000000 0.580975 0.000000
0.000000 0.578929 0.000000
0.000000 0.576883 0.000000
0.000000 0.574837 0.000000
0.001298 0.572790 0.000000
0.043671 0.570744 0.000000
0.086045 0.568698 0.000000
0.128418 0.566651 0.000000
0.170791 0.564605 0.000000
0.213165 0.562559 0.000000
0.255538 0.560513 0.000000
0.297911 0.558466 0.000000
0.340284 0.556420 0.000000
0.382658 0.554374 0.000000
0.425031 0.552328 0.000000
0.467404 0.550281 0.000000
0.509777 0.548235 0.000000
0.552151 0.546189 0.000000
0.594524 0.544142 0.000000
0.636897 0.542096 0.000000
0.679270 0.540050 0.000000
0.721644 0.538004 0.000000
0.764017 0.535957 0.000000
0.806390 0.533911 0.000000
0.848763 0.531865 0.000000
0.891137 0.529819 0.000000
0.933510 0.527772 0.000000
0.975883 0.525726 0.000000
1.000000 0.523680 0.000000
1.000000 0.521633 0.000000
1.000000 0.519587 0.000000
1.000000 0.517541 0.000000
1.000000 0.515495 0.000000
0.000000 0.618092 0.000000
0.000000 0.616045 0.000000
0.000000 0.613999 0.000000
0.000000 0.611953 0.000000
0.000000 0.609907 0.000000
0.036719 0.607860 0.000000
0.079092 0.605814 0.000000
0.121465 0.603768 0.000000
0.163839 0.601721 0.000000
0.206212 0.599675 0.000000
0.248585 0.597629 0.000000
0.290958 0.595583 0.000000
0.333332 0.593536 0.000000
0.375705 0.591490 0.000000
0.418078 0.589444 0.000000
0.460451 0.587397 0.000000
0.502825 0.585351 0.000000
0.545198 0.583305 0.000000
0.587571 0.581259 0.000000
0.629944 0.579212 0.000000
0.672318 0.577166 0.000000
0.714691 0.575120 0.000000
0.757064 0.573074 0.000000
0.799438 0.571027 0.000000
0.841811 0.568981 0.000000
0.884184 0.566935 0.000000
0.926557 0.564888 0.000000
0.968931 0.562842 0.000000
1.000000 0.560796 0.000000
1.000000 0.558750 0.000000
1.000000 0.556703 0.000000
1.000000 0.554657 0.000000
1.000000 0.552611 0.000000
0.000000 0.655208 0.000000
0.000000 0.653162 0.000000
0.000000 0.651115 0.000000
0.000000 0.649069 0.000000
0.000000 0.647023 0.000000
0.029766 0.644976 0.000000
0.072139 0.642930 0.000000
0.114513 0.640884 0.000000
0.156886 0.638838 0.000000
0.199259 0.636791 0.000000
0.241633 0.634745 0.000000
0.284006 0.632699 0.000000
0.326379 0.630652 0.000000
0.368752 0.628606 0.000000
0.411126 0.626560 0.000000
0.453499 0.624514 0.000000
0.495872 0.622467 0.000000
0.538245 0.620421 0.000000
0.580619 0.618375 0.000000
0.622992 0.616329 0.000000
0.665365 0.614282 0.000000
0.707738 0.612236 0.000000
0.750112 0.610190 0.000000
0.792485 0.608143 0.000000
0.834858 0.606097 0.000000
0.877231 0.604051 0.000000
0.919605 0.602005 0.000000
0.961978 0.599958 0.000000
1.000000 0.597912 0.000000
1.000000 0.595866 0.000000
1.000000 0.593820 0.000000
1.000000 0.591773 0.000000
1.000000 0.589727 0.000000
0.000000 0.692324 0.000000
0.000000 0.690278 0.000000
0.000000 0.688231 0.000000
0.000000 0.686185 0.000000
0.000000 0.684139 0.000000
0.022814 0.682093 0.000000
0.065187 0.680046 0.000000
0.107560 0.678000 0.000000
0.149933 0.675954 0.000000
0.192307 0.673908 0.000000
0.234680 0.671861 0.000000
0.277053 0.669815 0.000000
0.319426 0.667769 0.000000
0.361800 0.665722 0.000000
0.404173 0.663676 0.000000
0.446546 0.661630 0.000000
0.488919 0.659584 0.000000
0.531293 0.657537 0.000000
0.573666 0.655491 0.000000
0.616039 0.653445 0.000000
0.658412 0.651399 0.000000
0.700786 0.649352 0.000000
0.743159 0.647306 0.000000
0.785532 0.645260 0.000000
0.827906 0.643213 0.000000
0.870279 0.641167 0.000000
0.912652 0.639121 0.000000
0.955025 0.637075 0.000000
0.997399 0.635028 0.000000
1.000000 0.632982 0.000000
1.000000 0.630936 0.000000
1.000000 0.628889 0.000000
1.000000 0.626843 0.000000
0.000000 0.729440 0.000000
0.000000 0.727394 0.000000
0.000000 0.725348 0.000000
0.000000 0.723301 0.000000
0.000000 0.721255 0.000000
0.015861 0.719209 0.000000
0.058234 0.717163 0.000000
0.100607 0.715116 0.000000
0.142981 0.713070 0.000000
0.185354 0.711024 0.000000
0.227727 0.708977 0.000000
0.270100 0.706931 0.000000
0.312474 0.704885 0.000000
0.354847 0.702839 0.000000
0.397220 0.700792 0.000000
0.439594 0.698746 0.000000
0.481967 0.696700 0.000000
0.524340 0.694654 0.000000
0.566713 0.692607 0.000000
0.609087 0.690561 0.000000
0.651460 0.688515 0.000000
0.693833 0.686468 0.000000
0.736206 0.684422 0.000000
0.778580 0.682376 0.000000
0.820953 0.680330 0.000000
0.863326 0.678283 0.000000
0.905699 0.676237 0.000000
0.948073 0.674191 0.000000
0.990446 0.672144 0.000000
1.000000 0.670098 0.000000
1.000000 0.668052 0.000000
1.000000 0.666006 0.000000
1.000000 0.663959 0.000000
0.000000 0.766556 0.000000
0.000000 0.764510 0.000000
0.000000 0.762464 0.000000
0.000000 0.760418 0.000000
0.000000 0.758371 0.000000
0.008908 0.756325 0.000000
0.051282 0.754279 0.000000
0.093655 0.752232 0.000000
0.136028 0.750186 0.000000
0.178401 0.748140 0.000000
0.220775 0.746094 0.000000
0.263148 0.744047 0.000000
0.305521 0.742001 0.000000
0.347894 0.739955 0.000000
0.390268 0.737909 0.000000
0.432641 0.735862 0.000000
0.475014 0.733816 0.000000
0.517387 0.731770 0.000000
0.559761 0.729723 0.000000
0.602134 0.727677 0.000000
0.644507 0.725631 0.000000
0.686880 0.723585 0.000000
0.729254 0.721538 0.000000
0.771627 0.719492 0.000000
0.814000 0.717446 0.000000
0.856374 0.715400 0.000000
0.898747 0.713353 0.000000
0.941120 0.711307 0.000000
0.983493 0.709261 0.000000
1.000000 0.707214 0.000000
1.000000 0.705168 0.000000
1.000000 0.703122 0.000000
1.000000 0.701076 0.000000
0.000000 0.803673 0.000000
0.000000 0.801626 0.000000
0.000000 0.799580 0.000000
0.000000 0.797534 0.000000
0.000000 0.795488 0.000000
0.001956 0.793441 0.000000
0.044329 0.791395 0.000000
0.086702 0.789349 0.000000
0.129075 0.787302 0.000000
0.171449 0.785256 0.000000
0.213822 0.783210 0.000000
0.256195 0.781164 0.000000
0.298568 0.779117 0.000000
0.340942 0.777071 0.000000
0.383315 0.775025 0.000000
0.425688 0.772978 0.000000
0.468062 0.770932 0.000000
0.510435 0.768886 0.000000
0.552808 0.766840 0.000000
0.595181 0.764793 0.000000
0.637555 0.762747 0.000000
0.679928 0.760701 0.000000
0.722301 0.758655 0.000000
0.764674 0.756608 0.000000
0.807048 0.754562 0.000000
0.849421 0.752516 0.000000
0.891794 0.750469 0.000000
0.934167 0.748423 0.000000
0.976541 0.746377 0.000000
1.000000 0.744331 0.000000
1.000000 0.742284 0.000000
1.000000 0.740238 0.000000
1.000000 0.738192 0.000000
0.000000 0.840789 0.000000
0.000000 0.838743 0.000000
0.000000 0.836696 0.000000
0.000000 0.834650 0.000000
0.000000 0.832604 0.000000
0.000000 0.830557 0.000000
0.037376 0.828511 0.000000
0.079750 0.826465 0.000000
0.122123 0.824419 0.000000
0.164496 0.822372 0.000000
0.206869 0.820326 0.000000
0.249243 0.818280 0.000000
0.291616 0.816234 0.000000
0.333989 0.814187 0.000000
0.376362 0.812141 0.000000
0.418736 0.810095 0.000000
0.461109 0.808048 0.000000
0.503482 0.806002 0.000000
0.545855 0.803956 0.000000
0.588229 0.801910 0.000000
0.630602 0.799863 0.000000
0.672975 0.797817 0.000000
0.715348 0.795771 0.000000
0.757722 0.793724 0.000000
0.800095 0.791678 0.000000
0.842468 0.789632 0.000000
0.884842 0.787586 0.000000
0.927215 0.785539 0.000000
0.969588 0.783493 0.000000
1.000000 0.781447 0.000000
1.000000 0.779401 0.000000
1.000000 0.777354 0.000000
1.000000 0.775308 0.000000
0.000000 0.877905 0.000000
0.000000 0.875859 0.000000
0.000000 0.873812 0.000000
0.000000 0.871766 0.000000
0.000000 0.869720 0.000000
0.000000 0.867674 0.000000
0.030424 0.865627 0.000000
0.072797 0.863581 0.000000
0.115170 0.861535 0.000000
0.157543 0.859489 0.000000
0.199917 0.857442 0.000000
0.242290 0.855396 0.000000
0.284663 0.853350 0.000000
0.327036 0.851303 0.000000
0.369410 0.849257 0.000000
0.411783 0.847211 0.000000
0.454156 0.845165 0.000000
0.496530 0.843118 0.000000
0.538903 0.841072 0.000000
0.581276 0.839026 0.000000
0.623649 0.836979 0.000000
0.666023 0.834933 0.000000
0.708396 0.832887 0.000000
0.750769 0.830841 0.000000
0.793142 0.828794 0.000000
0.835516 0.826748 0.000000
0.877889 0.824702 0.000000
0.920262 0.822656 0.000000
0.962635 0.820609 0.000000
1.000000 0.818563 0.000000
1.000000 0.816517 0.000000
1.000000 0.814470 0.000000
1.000000 0.812424 0.000000
0.000000 0.915021 0.000000
0.000000 0.912975 0.000000
0.000000 0.910929 0.000000
0.000000 0.908882 0.000000
0.000000 0.906836 0.000000
0.000000 0.904790 0.000000
0.023471 0.902744 0.000000
0.065844 0.900697 0.000000
0.108218 0.898651 0.000000
0.150591 0.896605 0.000000
0.192964 0.894558 0.000000
0.235337 0.892512 0.000000
0.277711 0.890466 0.000000
0.320084 0.888420 0.000000
0.362457 0.886373 0.000000
0.404830 0.884327 0.000000
0.447204 0.882281 0.000000
0.489577 0.880235 0.000000
0.531950 0.878188 0.000000
0.574323 0.876142 0.000000
0.616697 0.874096 0.000000
0.659070 0.872049 0.000000
0.701443 0.870003 0.000000
0.743816 0.867957 0.000000
0.786190 0.865911 0.000000
0.828563 0.863864 0.000000
0.870936 0.861818 0.000000
