app/public/luts/warm-nostalgic.cube
TITLE "Warm Nostalgic"
LUT_3D_SIZE 9
DOMAIN_MIN 0.0 0.0 0.0
DOMAIN_MAX 1.0 1.0 1.0
0.031457 0.025930 0.020402
0.154589 0.027578 0.022051
0.277720 0.029227 0.023699
0.400852 0.030875 0.025348
0.523984 0.032524 0.026997
0.647116 0.034172 0.028645
0.770248 0.035821 0.030294
0.893379 0.037469 0.031942
1.000000 0.039118 0.033591
0.036766 0.147540 0.025712
0.159898 0.149189 0.027360
0.283030 0.150837 0.029009
0.406161 0.152486 0.030657
0.529293 0.154135 0.032306
0.652425 0.155783 0.033954
0.775557 0.157432 0.035603
0.898689 0.159080 0.037251
1.000000 0.160729 0.038900
0.042075 0.269151 0.031021
0.165207 0.270800 0.032669
0.288339 0.272448 0.034318
0.411471 0.274097 0.035967
0.534603 0.275745 0.037615
0.657734 0.277394 0.039264
0.780866 0.279042 0.040912
0.903998 0.280691 0.042561
1.000000 0.282340 0.044209
0.047385 0.390762 0.036330
0.170516 0.392410 0.037979
0.293648 0.394059 0.039627
0.416780 0.395708 0.041276
0.539912 0.397356 0.042924
0.663044 0.399005 0.044573
0.786175 0.400653 0.046222
0.909307 0.402302 0.047870
1.000000 0.403950 0.049519
0.052694 0.512373 0.041639
0.175826 0.514021 0.043288
0.298957 0.515670 0.044937
0.422089 0.517318 0.046585
0.545221 0.518967 0.048234
0.668353 0.520615 0.049882
0.791485 0.522264 0.051531
0.914617 0.523913 0.053179
1.000000 0.525561 0.054828
0.058003 0.633983 0.046949
0.181135 0.635632 0.048597
0.304267 0.637281 0.050246
0.427399 0.638929 0.051894
0.550530 0.640578 0.053543
0.673662 0.642226 0.055192
0.796794 0.643875 0.056840
0.919926 0.645523 0.058489
1.000000 0.647172 0.060137
0.063312 0.755594 0.052258
0.186444 0.757243 0.053907
0.309576 0.758891 0.055555
0.432708 0.760540 0.057204
0.555840 0.762188 0.058852
0.678971 0.763837 0.060501
0.802103 0.765486 0.062149
0.925235 0.767134 0.063798
1.000000 0.768783 0.065446
0.068622 0.877205 0.057567
0.191754 0.878854 0.059216
0.314885 0.880502 0.060864
0.438017 0.882151 0.062513
0.561149 0.883799 0.064162
0.684281 0.885448 0.065810
0.807413 0.887096 0.067459
0.930544 0.888745 0.069107
1.000000 0.890393 0.070756
0.073931 0.998816 0.062877
0.197063 1.000000 0.064525
0.320195 1.000000 0.066174
0.443326 1.000000 0.067822
0.566458 1.000000 0.069471
0.689590 1.000000 0.071119
0.812722 1.000000 0.072768
0.935854 1.000000 0.074417
1.000000 1.000000 0.076065
0.031950 0.026423 0.127985
0.155082 0.028072 0.129634
0.278214 0.029720 0.131282
0.401346 0.031369 0.132931
0.524477 0.033017 0.134580
0.647609 0.034666 0.136228
0.770741 0.036314 0.137877
0.893873 0.037963 0.139525
1.000000 0.039611 0.141174
0.037260 0.148034 0.133295
0.160391 0.149682 0.134943
0.283523 0.151331 0.136592
0.406655 0.152980 0.138240
0.529787 0.154628 0.139889
0.652919 0.156277 0.141537
0.776050 0.157925 0.143186
0.899182 0.159574 0.144835
1.000000 0.161222 0.146483
0.042569 0.269645 0.138604
0.165701 0.271293 0.140252
0.288832 0.272942 0.141901
0.411964 0.274590 0.143550
0.535096 0.276239 0.145198
0.658228 0.277887 0.146847
0.781360 0.279536 0.148495
0.904491 0.281185 0.150144
1.000000 0.282833 0.151792
0.047878 0.391255 0.143913
0.171010 0.392904 0.145562
0.294142 0.394553 0.147210
0.417274 0.396201 0.148859
0.540405 0.397850 0.150507
0.663537 0.399498 0.152156
0.786669 0.401147 0.153805
0.909801 0.402795 0.155453
1.000000 0.404444 0.157102
0.053187 0.512866 0.149223
0.176319 0.514515 0.150871
0.299451 0.516163 0.152520
0.422583 0.517812 0.154168
0.545715 0.519460 0.155817
0.668846 0.521109 0.157465
0.791978 0.522758 0.159114
0.915110 0.524406 0.160762
1.000000 0.526055 0.162411
0.058497 0.634477 0.154532
0.181628 0.636126 0.156180
0.304760 0.637774 0.157829
0.427892 0.639423 0.159477
0.551024 0.641071 0.161126
0.674156 0.642720 0.162775
0.797288 0.644368 0.164423
0.920419 0.646017 0.166072
1.000000 0.647665 0.167720
0.063806 0.756088 0.159841
0.186938 0.757736 0.161490
0.310070 0.759385 0.163138
0.433201 0.761033 0.164787
0.556333 0.762682 0.166435
0.679465 0.764331 0.168084
0.802597 0.765979 0.169732
0.925729 0.767628 0.171381
1.000000 0.769276 0.173030
0.069115 0.877699 0.165150
0.192247 0.879347 0.166799
0.315379 0.880996 0.168447
0.438511 0.882644 0.170096
0.561642 0.884293 0.171745
0.684774 0.885941 0.173393
0.807906 0.887590 0.175042
0.931038 0.889238 0.176690
1.000000 0.890887 0.178339
0.074425 0.999309 0.170460
0.197556 1.000000 0.172108
0.320688 1.000000 0.173757
0.443820 1.000000 0.175405
0.566952 1.000000 0.177054
0.690084 1.000000 0.178702
0.813215 1.000000 0.180351
0.936347 1.000000 0.182000
1.000000 1.000000 0.183648
0.032444 0.026917 0.235568
0.155576 0.028565 0.237217
0.278707 0.030214 0.238865
0.401839 0.031862 0.240514
0.524971 0.033511 0.242163
0.648103 0.035159 0.243811
0.771235 0.036808 0.245460
0.894366 0.038456 0.247108
1.000000 0.040105 0.248757
0.037753 0.148527 0.240878
0.160885 0.150176 0.242526
0.284017 0.151824 0.244175
0.407148 0.153473 0.245823
0.530280 0.155122 0.247472
0.653412 0.156770 0.249120
0.776544 0.158419 0.250769
0.899676 0.160067 0.252418
1.000000 0.161716 0.254066
0.043062 0.270138 0.246187
0.166194 0.271787 0.247836
0.289326 0.273435 0.249484
0.412458 0.275084 0.251133
0.535590 0.276732 0.252781
0.658721 0.278381 0.254430
0.781853 0.280029 0.256078
0.904985 0.281678 0.257727
1.000000 0.283327 0.259375
0.048372 0.391749 0.251496
0.171503 0.393397 0.253145
0.294635 0.395046 0.254793
0.417767 0.396695 0.256442
0.540899 0.398343 0.258090
0.664031 0.399992 0.259739
0.787162 0.401640 0.261388
0.910294 0.403289 0.263036
1.000000 0.404937 0.264685
0.053681 0.513360 0.256806
0.176813 0.515008 0.258454
0.299945 0.516657 0.260103
0.423076 0.518305 0.261751
0.546208 0.519954 0.263400
0.669340 0.521602 0.265048
0.792472 0.523251 0.266697
0.915604 0.524900 0.268345
1.000000 0.526548 0.269994
0.058990 0.634971 0.262115
0.182122 0.636619 0.263763
0.305254 0.638268 0.265412
0.428386 0.639916 0.267060
0.551517 0.641565 0.268709
0.674649 0.643213 0.270358
0.797781 0.644862 0.272006
0.920913 0.646510 0.273655
1.000000 0.648159 0.275303
0.064300 0.756581 0.267424
0.187431 0.758230 0.269073
0.310563 0.759878 0.270721
0.433695 0.761527 0.272370
0.556827 0.763176 0.274018
0.679959 0.764824 0.275667
0.803090 0.766473 0.277315
0.926222 0.768121 0.278964
1.000000 0.769770 0.280613
0.069609 0.878192 0.272733
0.192741 0.879841 0.274382
0.315872 0.881489 0.276030
0.439004 0.883138 0.277679
0.562136 0.884786 0.279328
0.685268 0.886435 0.280976
0.808400 0.888083 0.282625
0.931531 0.889732 0.284273
1.000000 0.891381 0.285922
0.074918 0.999803 0.278043
0.198050 1.000000 0.279691
0.321182 1.000000 0.281340
0.444313 1.000000 0.282988
0.567445 1.000000 0.284637
0.690577 1.000000 0.286285
0.813709 1.000000 0.287934
0.936841 1.000000 0.289583
1.000000 1.000000 0.291231
0.032937 0.027410 0.343151
0.156069 0.029059 0.344800
0.279201 0.030707 0.346449
0.402333 0.032356 0.348097
0.525465 0.034004 0.349746
0.648596 0.035653 0.351394
0.771728 0.037301 0.353043
0.894860 0.038950 0.354691
1.000000 0.040599 0.356340
0.038247 0.149021 0.348461
0.161378 0.150669 0.350109
0.284510 0.152318 0.351758
0.407642 0.153967 0.353406
0.530774 0.155615 0.355055
0.653906 0.157264 0.356703
0.777037 0.158912 0.358352
0.900169 0.160561 0.360001
1.000000 0.162209 0.361649
0.043556 0.270632 0.353770
0.166688 0.272280 0.355419
0.289819 0.273929 0.357067
0.412951 0.275577 0.358716
0.536083 0.277226 0.360364
0.659215 0.278874 0.362013
0.782347 0.280523 0.363661
0.905479 0.282172 0.365310
1.000000 0.283820 0.366958
0.048865 0.392242 0.359079
0.171997 0.393891 0.360728
0.295129 0.395540 0.362376
0.418261 0.397188 0.364025
0.541392 0.398837 0.365673
0.664524 0.400485 0.367322
0.787656 0.402134 0.368971
0.910788 0.403782 0.370619
1.000000 0.405431 0.372268
0.054174 0.513853 0.364389
0.177306 0.515502 0.366037
0.300438 0.517150 0.367686
0.423570 0.518799 0.369334
0.546702 0.520447 0.370983
0.669833 0.522096 0.372631
0.792965 0.523745 0.374280
0.916097 0.525393 0.375928
1.000000 0.527042 0.377577
0.059484 0.635464 0.369698
0.182616 0.637113 0.371346
0.305747 0.638761 0.372995
0.428879 0.640410 0.374643
0.552011 0.642058 0.376292
0.675143 0.643707 0.377941
0.798275 0.645355 0.379589
0.921406 0.647004 0.381238
1.000000 0.648652 0.382886
0.064793 0.757075 0.375007
0.187925 0.758723 0.376656
0.311057 0.760372 0.378304
0.434188 0.762020 0.379953
0.557320 0.763669 0.381601
0.680452 0.765318 0.383250
0.803584 0.766966 0.384898
0.926716 0.768615 0.386547
1.000000 0.770263 0.388196
0.070102 0.878686 0.380316
0.193234 0.880334 0.381965
0.316366 0.881983 0.383614
0.439498 0.883631 0.385262
0.562630 0.885280 0.386911
0.685761 0.886928 0.388559
0.808893 0.888577 0.390208
0.932025 0.890225 0.391856
1.000000 0.891874 0.393505
0.075412 1.000000 0.385626
0.198543 1.000000 0.387274
0.321675 1.000000 0.388923
0.444807 1.000000 0.390571
0.567939 1.000000 0.392220
0.691071 1.000000 0.393868
0.814202 1.000000 0.395517
0.937334 1.000000 0.397166
1.000000 1.000000 0.398814
0.033431 0.027904 0.450734
0.156563 0.029552 0.452383
0.279694 0.031201 0.454032
0.402826 0.032849 0.455680
0.525958 0.034498 0.457329
0.649090 0.036146 0.458977
0.772222 0.037795 0.460626
0.895353 0.039444 0.462274
1.000000 0.041092 0.463923
0.038740 0.149514 0.456044
0.161872 0.151163 0.457692
0.285004 0.152812 0.459341
0.408136 0.154460 0.460989
0.531267 0.156109 0.462638
0.654399 0.157757 0.464286
0.777531 0.159406 0.465935
0.900663 0.161054 0.467584
1.000000 0.162703 0.469232
0.044049 0.271125 0.461353
0.167181 0.272774 0.463002
0.290313 0.274422 0.464650
0.413445 0.276071 0.466299
0.536577 0.277719 0.467947
0.659708 0.279368 0.469596
0.782840 0.281017 0.471244
0.905972 0.282665 0.472893
1.000000 0.284314 0.474541
0.049359 0.392736 0.466662
0.172490 0.394385 0.468311
0.295622 0.396033 0.469959
0.418754 0.397682 0.471608
0.541886 0.399330 0.473257
0.665018 0.400979 0.474905
0.788150 0.402627 0.476554
0.911281 0.404276 0.478202
1.000000 0.405924 0.479851
0.054668 0.514347 0.471972
0.177800 0.515995 0.473620
0.300932 0.517644 0.475269
0.424063 0.519292 0.476917
0.547195 0.520941 0.478566
0.670327 0.522590 0.480214
0.793459 0.524238 0.481863
0.916591 0.525887 0.483511
1.000000 0.527535 0.485160
0.059977 0.635958 0.477281
0.183109 0.637606 0.478929
0.306241 0.639255 0.480578
0.429373 0.640903 0.482227
0.552504 0.642552 0.483875
0.675636 0.644200 0.485524
0.798768 0.645849 0.487172
0.921900 0.647497 0.488821
1.000000 0.649146 0.490469
0.065287 0.757568 0.482590
0.188418 0.759217 0.484239
0.311550 0.760865 0.485887
0.434682 0.762514 0.487536
0.557814 0.764163 0.489184
0.680946 0.765811 0.490833
0.804077 0.767460 0.492481
0.927209 0.769108 0.494130
1.000000 0.770757 0.495779
0.070596 0.879179 0.487899
0.193728 0.880828 0.489548
0.316859 0.882476 0.491197
0.439991 0.884125 0.492845
0.563123 0.885773 0.494494
0.686255 0.887422 0.496142
0.809387 0.889070 0.497791
0.932518 0.890719 0.499439
1.000000 0.892368 0.501088
0.075905 1.000000 0.493209
0.199037 1.000000 0.494857
0.322169 1.000000 0.496506
0.445301 1.000000 0.498154
0.568432 1.000000 0.499803
0.691564 1.000000 0.501451
0.814696 1.000000 0.503100
0.937828 1.000000 0.504749
1.000000 1.000000 0.506397
0.033924 0.028397 0.558317
0.157056 0.030046 0.559966
0.280188 0.031694 0.561615
0.403320 0.033343 0.563263
0.526452 0.034991 0.564912
0.649583 0.036640 0.566560
0.772715 0.038288 0.568209
0.895847 0.039937 0.569857
1.000000 0.041586 0.571506
0.039234 0.150008 0.563627
0.162365 0.151656 0.565275
0.285497 0.153305 0.566924
0.408629 0.154954 0.568572
0.531761 0.156602 0.570221
0.654893 0.158251 0.571870
0.778024 0.159899 0.573518
0.901156 0.161548 0.575167
1.000000 0.163196 0.576815
0.044543 0.271619 0.568936
0.167675 0.273267 0.570585
0.290807 0.274916 0.572233
0.413938 0.276564 0.573882
0.537070 0.278213 0.575530
0.660202 0.279861 0.577179
0.783334 0.281510 0.578827
0.906466 0.283159 0.580476
1.000000 0.284807 0.582124
0.049852 0.393230 0.574245
0.172984 0.394878 0.575894
0.296116 0.396527 0.577542
0.419248 0.398175 0.579191
0.542379 0.399824 0.580840
0.665511 0.401472 0.582488
0.788643 0.403121 0.584137
0.911775 0.404769 0.585785
1.000000 0.406418 0.587434
0.055161 0.514840 0.579555
0.178293 0.516489 0.581203
0.301425 0.518137 0.582852
0.424557 0.519786 0.584500
0.547689 0.521435 0.586149
0.670821 0.523083 0.587797
0.793952 0.524732 0.589446
0.917084 0.526380 0.591094
1.000000 0.528029 0.592743
0.060471 0.636451 0.584864
0.183603 0.638100 0.586512
0.306734 0.639748 0.588161
0.429866 0.641397 0.589810
0.552998 0.643045 0.591458
0.676130 0.644694 0.593107
0.799262 0.646342 0.594755
0.922393 0.647991 0.596404
1.000000 0.649640 0.598052
0.065780 0.758062 0.590173
0.188912 0.759710 0.591822
0.312044 0.761359 0.593470
0.435175 0.763008 0.595119
0.558307 0.764656 0.596767
0.681439 0.766305 0.598416
0.804571 0.767953 0.600064
0.927703 0.769602 0.601713
1.000000 0.771250 0.603362
0.071089 0.879673 0.595482
0.194221 0.881321 0.597131
0.317353 0.882970 0.598780
0.440485 0.884618 0.600428
0.563617 0.886267 0.602077
0.686748 0.887915 0.603725
0.809880 0.889564 0.605374
0.933012 0.891213 0.607022
1.000000 0.892861 0.608671
0.076399 1.000000 0.600792
0.199530 1.000000 0.602440
0.322662 1.000000 0.604089
0.445794 1.000000 0.605737
0.568926 1.000000 0.607386
0.692058 1.000000 0.609035
0.815189 1.000000 0.610683
0.938321 1.000000 0.612332
1.000000 1.000000 0.613980
0.034418 0.028891 0.665900
0.157550 0.030539 0.667549
0.280681 0.032188 0.669198
0.403813 0.033836 0.670846
0.526945 0.035485 0.672495
0.650077 0.037133 0.674143
0.773209 0.038782 0.675792
0.896340 0.040431 0.677440
1.000000 0.042079 0.679089
0.039727 0.150501 0.671210
0.162859 0.152150 0.672858
0.285991 0.153799 0.674507
0.409123 0.155447 0.676155
0.532254 0.157096 0.677804
0.655386 0.158744 0.679453
0.778518 0.160393 0.681101
0.901650 0.162041 0.682750
1.000000 0.163690 0.684398
0.045036 0.272112 0.676519
0.168168 0.273761 0.678168
0.291300 0.275409 0.679816
0.414432 0.277058 0.681465
0.537564 0.278706 0.683113
0.660695 0.280355 0.684762
0.783827 0.282004 0.686410
0.906959 0.283652 0.688059
1.000000 0.285301 0.689707
0.050346 0.393723 0.681828
0.173478 0.395372 0.683477
0.296609 0.397020 0.685125
0.419741 0.398669 0.686774
0.542873 0.400317 0.688423
0.666005 0.401966 0.690071
0.789137 0.403614 0.691720
0.912268 0.405263 0.693368
1.000000 0.406911 0.695017
0.055655 0.515334 0.687138
0.178787 0.516982 0.688786
0.301919 0.518631 0.690435
0.425050 0.520279 0.692083
0.548182 0.521928 0.693732
0.671314 0.523577 0.695380
0.794446 0.525225 0.697029
0.917578 0.526874 0.698677
1.000000 0.528522 0.700326
0.060964 0.636945 0.692447
0.184096 0.638593 0.694095
0.307228 0.640242 0.695744
0.430360 0.641890 0.697393
0.553492 0.643539 0.699041
0.676623 0.645187 0.700690
0.799755 0.646836 0.702338
0.922887 0.648484 0.703987
1.000000 0.650133 0.705635
0.066274 0.758555 0.697756
0.189405 0.760204 0.699405
0.312537 0.761853 0.701053
0.435669 0.763501 0.702702
0.558801 0.765150 0.704350
0.681933 0.766798 0.705999
0.805064 0.768447 0.707648
0.928196 0.770095 0.709296
1.000000 0.771744 0.710945
0.071583 0.880166 0.703065
0.194715 0.881815 0.704714
0.317846 0.883463 0.706363
0.440978 0.885112 0.708011
0.564110 0.886760 0.709660
0.687242 0.888409 0.711308
0.810374 0.890058 0.712957
0.933506 0.891706 0.714605
1.000000 0.893355 0.716254
0.076892 1.000000 0.708375
0.200024 1.000000 0.710023
0.323156 1.000000 0.711672
0.446288 1.000000 0.713320
0.569419 1.000000 0.714969
0.692551 1.000000 0.716618
0.815683 1.000000 0.718266
0.938815 1.000000 0.719915
1.000000 1.000000 0.721563
0.034911 0.029384 0.773483
0.158043 0.031033 0.775132
0.281175 0.032681 0.776781
0.404307 0.034330 0.778429
0.527439 0.035978 0.780078
0.650570 0.037627 0.781726
0.773702 0.039276 0.783375
0.896834 0.040924 0.785023
1.000000 0.042573 0.786672
0.040221 0.150995 0.778793
0.163352 0.152644 0.780441
0.286484 0.154292 0.782090
0.409616 0.155941 0.783738
0.532748 0.157589 0.785387
0.655880 0.159238 0.787036
0.779012 0.160886 0.788684
0.902143 0.162535 0.790333
1.000000 0.164183 0.791981
0.045530 0.272606 0.784102
0.168662 0.274254 0.785751
0.291794 0.275903 0.787399
0.414925 0.277551 0.789048
0.538057 0.279200 0.790696
0.661189 0.280849 0.792345
0.784321 0.282497 0.793993
0.907453 0.284146 0.795642
1.000000 0.285794 0.797290
0.050839 0.394217 0.789411
0.173971 0.395865 0.791060
0.297103 0.397514 0.792708
0.420235 0.399162 0.794357
0.543366 0.400811 0.796006
0.666498 0.402459 0.797654
0.789630 0.404108 0.799303
0.912762 0.405756 0.800951
1.000000 0.407405 0.802600
0.056149 0.515827 0.794721
0.179280 0.517476 0.796369
0.302412 0.519124 0.798018
0.425544 0.520773 0.799666
0.548676 0.522422 0.801315
0.671808 0.524070 0.802963
0.794939 0.525719 0.804612
0.918071 0.527367 0.806261
1.000000 0.529016 0.807909
0.061458 0.637438 0.800030
0.184590 0.639087 0.801678
0.307721 0.640735 0.803327
0.430853 0.642384 0.804976
0.553985 0.644032 0.806624
0.677117 0.645681 0.808273
0.800249 0.647329 0.809921
0.923380 0.648978 0.811570
1.000000 0.650627 0.813218
0.066767 0.759049 0.805339
0.189899 0.760697 0.806988
0.313031 0.762346 0.808636
0.436163 0.763995 0.810285
0.559294 0.765643 0.811933
0.682426 0.767292 0.813582
0.805558 0.768940 0.815231
0.928690 0.770589 0.816879
1.000000 0.772237 0.818528
0.072076 0.880660 0.810649
0.195208 0.882308 0.812297
0.318340 0.883957 0.813946
0.441472 0.885605 0.815594
0.564604 0.887254 0.817243
0.687735 0.888902 0.818891
0.810867 0.890551 0.820540
0.933999 0.892200 0.822188
1.000000 0.893848 0.823837
0.077386 1.000000 0.815958
0.200517 1.000000 0.817606
0.323649 1.000000 0.819255
0.446781 1.000000 0.820903
0.569913 1.000000 0.822552
0.693045 1.000000 0.824201
0.816177 1.000000 0.825849
0.939308 1.000000 0.827498
1.000000 1.000000 0.829146
0.035405 0.029878 0.881067
0.158537 0.031526 0.882715
0.281669 0.033175 0.884364
0.404800 0.034823 0.886012
0.527932 0.036472 0.887661
0.651064 0.038120 0.889309
0.774196 0.039769 0.890958
0.897328 0.041418 0.892606
1.000000 0.043066 0.894255
0.040714 0.151489 0.886376
0.163846 0.153137 0.888024
0.286978 0.154786 0.889673
0.410110 0.156434 0.891321
0.533241 0.158083 0.892970
0.656373 0.159731 0.894619
0.779505 0.161380 0.896267
0.902637 0.163028 0.897916
1.000000 0.164677 0.899564
0.046023 0.273099 0.891685
0.169155 0.274748 0.893334
0.292287 0.276396 0.894982
0.415419 0.278045 0.896631
0.538551 0.279694 0.898279
0.661683 0.281342 0.899928
0.784814 0.282991 0.901576
0.907946 0.284639 0.903225
1.000000 0.286288 0.904874
0.051333 0.394710 0.896994
0.174465 0.396359 0.898643
0.297596 0.398007 0.900291
0.420728 0.399656 0.901940
0.543860 0.401304 0.903589
0.666992 0.402953 0.905237
0.790124 0.404601 0.906886
0.913255 0.406250 0.908534
1.000000 0.407899 0.910183
0.056642 0.516321 0.902304
0.179774 0.517969 0.903952
0.302906 0.519618 0.905601
0.426037 0.521267 0.907249
0.549169 0.522915 0.908898
0.672301 0.524564 0.910546
0.795433 0.526212 0.912195
0.918565 0.527861 0.913844
1.000000 0.529509 0.915492
0.061951 0.637932 0.907613
0.185083 0.639580 0.909262
0.308215 0.641229 0.910910
0.431347 0.642877 0.912559
0.554479 0.644526 0.914207
0.677610 0.646174 0.915856
0.800742 0.647823 0.917504
0.923874 0.649472 0.919153
1.000000 0.651120 0.920801
0.067261 0.759542 0.912922
0.190392 0.761191 0.914571
0.313524 0.762840 0.916219
0.436656 0.764488 0.917868
0.559788 0.766137 0.919516
0.682920 0.767785 0.921165
0.806051 0.769434 0.922814
0.929183 0.771082 0.924462
1.000000 0.772731 0.926111
0.072570 0.881153 0.918232
0.195702 0.882802 0.919880
0.318834 0.884450 0.921529
0.441965 0.886099 0.923177
0.565097 0.887747 0.924826
0.688229 0.889396 0.926474
0.811361 0.891045 0.928123
0.934493 0.892693 0.929771
1.000000 0.894342 0.931420
0.077879 1.000000 0.923541
0.201011 1.000000 0.925189
0.324143 1.000000 0.926838
0.447275 1.000000 0.928486
0.570406 1.000000 0.930135
0.693538 1.000000 0.931784
0.816670 1.000000 0.933432
0.939802 1.000000 0.935081
1.000000 1.000000 0.936729
