app/public/luts/warm-nostalgic.cube
TITLE "Warm Nostalgic"
LUT_3D_SIZE 5
DOMAIN_MIN 0.0 0.0 0.0
DOMAIN_MAX 1.0 1.0 1.0
0.031457 0.025930 0.020402
0.277720 0.029227 0.023699
0.523984 0.032524 0.026997
0.770248 0.035821 0.030294
1.000000 0.039118 0.033591
0.042075 0.269151 0.031021
0.288339 0.272448 0.034318
0.534603 0.275745 0.037615
0.780866 0.279042 0.040912
1.000000 0.282340 0.044209
0.052694 0.512373 0.041639
0.298957 0.515670 0.044937
0.545221 0.518967 0.048234
0.791485 0.522264 0.051531
1.000000 0.525561 0.054828
0.063312 0.755594 0.052258
0.309576 0.758891 0.055555
0.555840 0.762188 0.058852
0.802103 0.765486 0.062149
1.000000 0.768783 0.065446
0.073931 0.998816 0.062877
0.320195 1.000000 0.066174
0.566458 1.000000 0.069471
0.812722 1.000000 0.072768
1.000000 1.000000 0.076065
0.032444 0.026917 0.235568
0.278707 0.030214 0.238865
0.524971 0.033511 0.242163
0.771235 0.036808 0.245460
1.000000 0.040105 0.248757
0.043062 0.270138 0.246187
0.289326 0.273435 0.249484
0.535590 0.276732 0.252781
0.781853 0.280029 0.256078
1.000000 0.283327 0.259375
0.053681 0.513360 0.256806
0.299945 0.516657 0.260103
0.546208 0.519954 0.263400
0.792472 0.523251 0.266697
1.000000 0.526548 0.269994
0.064300 0.756581 0.267424
0.310563 0.759878 0.270721
0.556827 0.763176 0.274018
0.803090 0.766473 0.277315
1.000000 0.769770 0.280613
0.074918 0.999803 0.278043
0.321182 1.000000 0.281340
0.567445 1.000000 0.284637
0.813709 1.000000 0.287934
1.000000 1.000000 0.291231
0.033431 0.027904 0.450734
0.279694 0.031201 0.454032
0.525958 0.034498 0.457329
0.772222 0.037795 0.460626
1.000000 0.041092 0.463923
0.044049 0.271125 0.461353
0.290313 0.274422 0.464650
0.536577 0.277719 0.467947
0.782840 0.281017 0.471244
1.000000 0.284314 0.474541
0.054668 0.514347 0.471972
0.300932 0.517644 0.475269
0.547195 0.520941 0.478566
0.793459 0.524238 0.481863
1.000000 0.527535 0.485160
0.065287 0.757568 0.482590
0.311550 0.760865 0.485887
0.557814 0.764163 0.489184
0.804077 0.767460 0.492481
1.000000 0.770757 0.495779
0.075905 1.000000 0.493209
0.322169 1.000000 0.496506
0.568432 1.000000 0.499803
0.814696 1.000000 0.503100
1.000000 1.000000 0.506397
0.034418 0.028891 0.665900
0.280681 0.032188 0.669198
0.526945 0.035485 0.672495
0.773209 0.038782 0.675792
1.000000 0.042079 0.679089
0.045036 0.272112 0.676519
0.291300 0.275409 0.679816
0.537564 0.278706 0.683113
0.783827 0.282004 0.686410
1.000000 0.285301 0.689707
0.055655 0.515334 0.687138
0.301919 0.518631 0.690435
0.548182 0.521928 0.693732
0.794446 0.525225 0.697029
1.000000 0.528522 0.700326
0.066274 0.758555 0.697756
0.312537 0.761853 0.701053
0.558801 0.765150 0.704350
0.805064 0.768447 0.707648
1.000000 0.771744 0.710945
0.076892 1.000000 0.708375
0.323156 1.000000 0.711672
0.569419 1.000000 0.714969
0.815683 1.000000 0.718266
1.000000 1.000000 0.721563
0.035405 0.029878 0.881067
0.281669 0.033175 0.884364
0.527932 0.036472 0.887661
0.774196 0.039769 0.890958
1.000000 0.043066 0.894255
0.046023 0.273099 0.891685
0.292287 0.276396 0.894982
0.538551 0.279694 0.898279
0.784814 0.282991 0.901576
1.000000 0.286288 0.904874
0.056642 0.516321 0.902304
0.302906 0.519618 0.905601
0.549169 0.522915 0.908898
0.795433 0.526212 0.912195
1.000000 0.529509 0.915492
0.067261 0.759542 0.912922
0.313524 0.762840 0.916219
0.559788 0.766137 0.919516
0.806051 0.769434 0.922814
1.000000 0.772731 0.926111
0.077879 1.000000 0.923541
0.324143 1.000000 0.926838
0.570406 1.000000 0.930135
0.816670 1.000000 0.933432
1.000000 1.000000 0.936729
