app/public/luts/warm-nostalgic.cube
TITLE "Warm Nostalgic"
LUT_3D_SIZE 33
DOMAIN_MIN 0.0 0.0 0.0
DOMAIN_MAX 1.0 1.0 1.0
0.031457 0.025930 0.020402
0.062240 0.026342 0.020814
0.093023 0.026754 0.021227
0.123806 0.027166 0.021639
0.154589 0.027578 0.022051
0.185371 0.027990 0.022463
0.216154 0.028402 0.022875
0.246937 0.028815 0.023287
0.277720 0.029227 0.023699
0.308503 0.029639 0.024112
0.339286 0.030051 0.024524
0.370069 0.030463 0.024936
0.400852 0.030875 0.025348
0.431635 0.031287 0.025760
0.462418 0.031699 0.026172
0.493201 0.032112 0.026584
0.523984 0.032524 0.026997
0.554767 0.032936 0.027409
0.585550 0.033348 0.027821
0.616333 0.033760 0.028233
0.647116 0.034172 0.028645
0.677899 0.034584 0.029057
0.708682 0.034997 0.029469
0.739465 0.035409 0.029882
0.770248 0.035821 0.030294
0.801031 0.036233 0.030706
0.831813 0.036645 0.031118
0.862596 0.037057 0.031530
0.893379 0.037469 0.031942
0.924162 0.037882 0.032354
0.954945 0.038294 0.032766
0.985728 0.038706 0.033179
1.000000 0.039118 0.033591
0.032784 0.056332 0.021730
0.063567 0.056744 0.022142
0.094350 0.057157 0.022554
0.125133 0.057569 0.022966
0.155916 0.057981 0.023378
0.186699 0.058393 0.023790
0.217482 0.058805 0.024202
0.248265 0.059217 0.024615
0.279048 0.059629 0.025027
0.309831 0.060041 0.025439
0.340614 0.060454 0.025851
0.371397 0.060866 0.026263
0.402179 0.061278 0.026675
0.432962 0.061690 0.027087
0.463745 0.062102 0.027500
0.494528 0.062514 0.027912
0.525311 0.062926 0.028324
0.556094 0.063339 0.028736
0.586877 0.063751 0.029148
0.617660 0.064163 0.029560
0.648443 0.064575 0.029972
0.679226 0.064987 0.030385
0.710009 0.065399 0.030797
0.740792 0.065811 0.031209
0.771575 0.066224 0.031621
0.802358 0.066636 0.032033
0.833141 0.067048 0.032445
0.863924 0.067460 0.032857
0.894707 0.067872 0.033270
0.925490 0.068284 0.033682
0.956273 0.068696 0.034094
0.987056 0.069109 0.034506
1.000000 0.069521 0.034918
0.034111 0.086735 0.023057
0.064894 0.087147 0.023469
0.095677 0.087559 0.023881
0.126460 0.087971 0.024293
0.157243 0.088383 0.024706
0.188026 0.088796 0.025118
0.218809 0.089208 0.025530
0.249592 0.089620 0.025942
0.280375 0.090032 0.026354
0.311158 0.090444 0.026766
0.341941 0.090856 0.027178
0.372724 0.091268 0.027590
0.403507 0.091681 0.028003
0.434290 0.092093 0.028415
0.465073 0.092505 0.028827
0.495856 0.092917 0.029239
0.526639 0.093329 0.029651
0.557422 0.093741 0.030063
0.588204 0.094153 0.030475
0.618987 0.094566 0.030888
0.649770 0.094978 0.031300
0.680553 0.095390 0.031712
0.711336 0.095802 0.032124
0.742119 0.096214 0.032536
0.772902 0.096626 0.032948
0.803685 0.097038 0.033360
0.834468 0.097451 0.033773
0.865251 0.097863 0.034185
0.896034 0.098275 0.034597
0.926817 0.098687 0.035009
0.957600 0.099099 0.035421
0.988383 0.099511 0.035833
1.000000 0.099923 0.036245
0.035439 0.117138 0.024384
0.066222 0.117550 0.024796
0.097005 0.117962 0.025209
0.127788 0.118374 0.025621
0.158571 0.118786 0.026033
0.189353 0.119198 0.026445
0.220136 0.119610 0.026857
0.250919 0.120023 0.027269
0.281702 0.120435 0.027681
0.312485 0.120847 0.028094
0.343268 0.121259 0.028506
0.374051 0.121671 0.028918
0.404834 0.122083 0.029330
0.435617 0.122495 0.029742
0.466400 0.122908 0.030154
0.497183 0.123320 0.030566
0.527966 0.123732 0.030979
0.558749 0.124144 0.031391
0.589532 0.124556 0.031803
0.620315 0.124968 0.032215
0.651098 0.125380 0.032627
0.681881 0.125793 0.033039
0.712664 0.126205 0.033451
0.743447 0.126617 0.033863
0.774230 0.127029 0.034276
0.805012 0.127441 0.034688
0.835795 0.127853 0.035100
0.866578 0.128265 0.035512
0.897361 0.128677 0.035924
0.928144 0.129090 0.036336
0.958927 0.129502 0.036748
0.989710 0.129914 0.037161
1.000000 0.130326 0.037573
0.036766 0.147540 0.025712
0.067549 0.147952 0.026124
0.098332 0.148365 0.026536
0.129115 0.148777 0.026948
0.159898 0.149189 0.027360
0.190681 0.149601 0.027772
0.221464 0.150013 0.028184
0.252247 0.150425 0.028597
0.283030 0.150837 0.029009
0.313813 0.151250 0.029421
0.344596 0.151662 0.029833
0.375378 0.152074 0.030245
0.406161 0.152486 0.030657
0.436944 0.152898 0.031069
0.467727 0.153310 0.031482
0.498510 0.153722 0.031894
0.529293 0.154135 0.032306
0.560076 0.154547 0.032718
0.590859 0.154959 0.033130
0.621642 0.155371 0.033542
0.652425 0.155783 0.033954
0.683208 0.156195 0.034367
0.713991 0.156607 0.034779
0.744774 0.157020 0.035191
0.775557 0.157432 0.035603
0.806340 0.157844 0.036015
0.837123 0.158256 0.036427
0.867906 0.158668 0.036839
0.898689 0.159080 0.037251
0.929472 0.159492 0.037664
0.960255 0.159904 0.038076
0.991037 0.160317 0.038488
1.000000 0.160729 0.038900
0.038093 0.177943 0.027039
0.068876 0.178355 0.027451
0.099659 0.178767 0.027863
0.130442 0.179179 0.028275
0.161225 0.179592 0.028687
0.192008 0.180004 0.029100
0.222791 0.180416 0.029512
0.253574 0.180828 0.029924
0.284357 0.181240 0.030336
0.315140 0.181652 0.030748
0.345923 0.182064 0.031160
0.376706 0.182477 0.031572
0.407489 0.182889 0.031985
0.438272 0.183301 0.032397
0.469055 0.183713 0.032809
0.499838 0.184125 0.033221
0.530621 0.184537 0.033633
0.561404 0.184949 0.034045
0.592186 0.185362 0.034457
0.622969 0.185774 0.034870
0.653752 0.186186 0.035282
0.684535 0.186598 0.035694
0.715318 0.187010 0.036106
0.746101 0.187422 0.036518
0.776884 0.187834 0.036930
0.807667 0.188246 0.037342
0.838450 0.188659 0.037755
0.869233 0.189071 0.038167
0.900016 0.189483 0.038579
0.930799 0.189895 0.038991
0.961582 0.190307 0.039403
0.992365 0.190719 0.039815
1.000000 0.191131 0.040227
0.039421 0.208346 0.028366
0.070204 0.208758 0.028778
0.100987 0.209170 0.029191
0.131770 0.209582 0.029603
0.162552 0.209994 0.030015
0.193335 0.210406 0.030427
0.224118 0.210819 0.030839
0.254901 0.211231 0.031251
0.285684 0.211643 0.031663
0.316467 0.212055 0.032076
0.347250 0.212467 0.032488
0.378033 0.212879 0.032900
0.408816 0.213291 0.033312
0.439599 0.213704 0.033724
0.470382 0.214116 0.034136
0.501165 0.214528 0.034548
0.531948 0.214940 0.034960
0.562731 0.215352 0.035373
0.593514 0.215764 0.035785
0.624297 0.216176 0.036197
0.655080 0.216588 0.036609
0.685863 0.217001 0.037021
0.716646 0.217413 0.037433
0.747429 0.217825 0.037845
0.778211 0.218237 0.038258
0.808994 0.218649 0.038670
0.839777 0.219061 0.039082
0.870560 0.219473 0.039494
0.901343 0.219886 0.039906
0.932126 0.220298 0.040318
0.962909 0.220710 0.040730
0.993692 0.221122 0.041143
1.000000 0.221534 0.041555
0.040748 0.238748 0.029694
0.071531 0.239161 0.030106
0.102314 0.239573 0.030518
0.133097 0.239985 0.030930
0.163880 0.240397 0.031342
0.194663 0.240809 0.031754
0.225446 0.241221 0.032166
0.256229 0.241633 0.032579
0.287012 0.242046 0.032991
0.317795 0.242458 0.033403
0.348577 0.242870 0.033815
0.379360 0.243282 0.034227
0.410143 0.243694 0.034639
0.440926 0.244106 0.035051
0.471709 0.244518 0.035464
0.502492 0.244930 0.035876
0.533275 0.245343 0.036288
0.564058 0.245755 0.036700
0.594841 0.246167 0.037112
0.625624 0.246579 0.037524
0.656407 0.246991 0.037936
0.687190 0.247403 0.038348
0.717973 0.247815 0.038761
0.748756 0.248228 0.039173
0.779539 0.248640 0.039585
0.810322 0.249052 0.039997
0.841105 0.249464 0.040409
0.871888 0.249876 0.040821
0.902671 0.250288 0.041233
0.933454 0.250700 0.041646
0.964237 0.251113 0.042058
0.995019 0.251525 0.042470
1.000000 0.251937 0.042882
0.042075 0.269151 0.031021
0.072858 0.269563 0.031433
0.103641 0.269975 0.031845
0.134424 0.270388 0.032257
0.165207 0.270800 0.032669
0.195990 0.271212 0.033082
0.226773 0.271624 0.033494
0.257556 0.272036 0.033906
0.288339 0.272448 0.034318
0.319122 0.272860 0.034730
0.349905 0.273272 0.035142
0.380688 0.273685 0.035554
0.411471 0.274097 0.035967
0.442254 0.274509 0.036379
0.473037 0.274921 0.036791
0.503820 0.275333 0.037203
0.534603 0.275745 0.037615
0.565385 0.276157 0.038027
0.596168 0.276570 0.038439
0.626951 0.276982 0.038852
0.657734 0.277394 0.039264
0.688517 0.277806 0.039676
0.719300 0.278218 0.040088
0.750083 0.278630 0.040500
0.780866 0.279042 0.040912
0.811649 0.279455 0.041324
0.842432 0.279867 0.041737
0.873215 0.280279 0.042149
0.903998 0.280691 0.042561
0.934781 0.281103 0.042973
0.965564 0.281515 0.043385
0.996347 0.281927 0.043797
1.000000 0.282340 0.044209
0.043403 0.299554 0.032348
0.074186 0.299966 0.032760
0.104969 0.300378 0.033173
0.135751 0.300790 0.033585
0.166534 0.301202 0.033997
0.197317 0.301614 0.034409
0.228100 0.302027 0.034821
0.258883 0.302439 0.035233
0.289666 0.302851 0.035645
0.320449 0.303263 0.036057
0.351232 0.303675 0.036470
0.382015 0.304087 0.036882
0.412798 0.304499 0.037294
0.443581 0.304912 0.037706
0.474364 0.305324 0.038118
0.505147 0.305736 0.038530
0.535930 0.306148 0.038942
0.566713 0.306560 0.039355
0.597496 0.306972 0.039767
0.628279 0.307384 0.040179
0.659062 0.307797 0.040591
0.689845 0.308209 0.041003
0.720628 0.308621 0.041415
0.751410 0.309033 0.041827
0.782193 0.309445 0.042240
0.812976 0.309857 0.042652
0.843759 0.310269 0.043064
0.874542 0.310682 0.043476
0.905325 0.311094 0.043888
0.936108 0.311506 0.044300
0.966891 0.311918 0.044712
0.997674 0.312330 0.045125
1.000000 0.312742 0.045537
0.044730 0.329957 0.033676
0.075513 0.330369 0.034088
0.106296 0.330781 0.034500
0.137079 0.331193 0.034912
0.167862 0.331605 0.035324
0.198645 0.332017 0.035736
0.229428 0.332429 0.036148
0.260211 0.332841 0.036561
0.290994 0.333254 0.036973
0.321777 0.333666 0.037385
0.352559 0.334078 0.037797
0.383342 0.334490 0.038209
0.414125 0.334902 0.038621
0.444908 0.335314 0.039033
0.475691 0.335726 0.039445
0.506474 0.336139 0.039858
0.537257 0.336551 0.040270
0.568040 0.336963 0.040682
0.598823 0.337375 0.041094
0.629606 0.337787 0.041506
0.660389 0.338199 0.041918
0.691172 0.338611 0.042330
0.721955 0.339024 0.042743
0.752738 0.339436 0.043155
0.783521 0.339848 0.043567
0.814304 0.340260 0.043979
0.845087 0.340672 0.044391
0.875870 0.341084 0.044803
0.906653 0.341496 0.045215
0.937436 0.341909 0.045628
0.968218 0.342321 0.046040
0.999001 0.342733 0.046452
1.000000 0.343145 0.046864
0.046057 0.360359 0.035003
0.076840 0.360771 0.035415
0.107623 0.361183 0.035827
0.138406 0.361596 0.036239
0.169189 0.362008 0.036651
0.199972 0.362420 0.037064
0.230755 0.362832 0.037476
0.261538 0.363244 0.037888
0.292321 0.363656 0.038300
0.323104 0.364068 0.038712
0.353887 0.364481 0.039124
0.384670 0.364893 0.039536
0.415453 0.365305 0.039949
0.446236 0.365717 0.040361
0.477019 0.366129 0.040773
0.507802 0.366541 0.041185
0.538584 0.366953 0.041597
0.569367 0.367366 0.042009
0.600150 0.367778 0.042421
0.630933 0.368190 0.042834
0.661716 0.368602 0.043246
0.692499 0.369014 0.043658
0.723282 0.369426 0.044070
0.754065 0.369838 0.044482
0.784848 0.370251 0.044894
0.815631 0.370663 0.045306
0.846414 0.371075 0.045718
0.877197 0.371487 0.046131
0.907980 0.371899 0.046543
0.938763 0.372311 0.046955
0.969546 0.372723 0.047367
1.000000 0.373135 0.047779
1.000000 0.373548 0.048191
0.047385 0.390762 0.036330
0.078168 0.391174 0.036742
0.108950 0.391586 0.037154
0.139733 0.391998 0.037567
0.170516 0.392410 0.037979
0.201299 0.392823 0.038391
0.232082 0.393235 0.038803
0.262865 0.393647 0.039215
0.293648 0.394059 0.039627
0.324431 0.394471 0.040039
0.355214 0.394883 0.040452
0.385997 0.395295 0.040864
0.416780 0.395708 0.041276
0.447563 0.396120 0.041688
0.478346 0.396532 0.042100
0.509129 0.396944 0.042512
0.539912 0.397356 0.042924
0.570695 0.397768 0.043337
0.601478 0.398180 0.043749
0.632261 0.398593 0.044161
0.663044 0.399005 0.044573
0.693827 0.399417 0.044985
0.724610 0.399829 0.045397
0.755392 0.400241 0.045809
0.786175 0.400653 0.046222
0.816958 0.401065 0.046634
0.847741 0.401477 0.047046
0.878524 0.401890 0.047458
0.909307 0.402302 0.047870
0.940090 0.402714 0.048282
0.970873 0.403126 0.048694
1.000000 0.403538 0.049106
1.000000 0.403950 0.049519
0.048712 0.421165 0.037658
0.079495 0.421577 0.038070
0.110278 0.421989 0.038482
0.141061 0.422401 0.038894
0.171844 0.422813 0.039306
0.202627 0.423225 0.039718
0.233410 0.423637 0.040130
0.264193 0.424050 0.040542
0.294976 0.424462 0.040955
0.325758 0.424874 0.041367
0.356541 0.425286 0.041779
0.387324 0.425698 0.042191
0.418107 0.426110 0.042603
0.448890 0.426522 0.043015
0.479673 0.426935 0.043427
0.510456 0.427347 0.043840
0.541239 0.427759 0.044252
0.572022 0.428171 0.044664
0.602805 0.428583 0.045076
0.633588 0.428995 0.045488
0.664371 0.429407 0.045900
0.695154 0.429819 0.046312
0.725937 0.430232 0.046725
0.756720 0.430644 0.047137
0.787503 0.431056 0.047549
0.818286 0.431468 0.047961
0.849069 0.431880 0.048373
0.879852 0.432292 0.048785
0.910635 0.432704 0.049197
0.941417 0.433117 0.049610
0.972200 0.433529 0.050022
1.000000 0.433941 0.050434
1.000000 0.434353 0.050846
0.050039 0.451567 0.038985
0.080822 0.451979 0.039397
0.111605 0.452392 0.039809
0.142388 0.452804 0.040221
0.173171 0.453216 0.040633
0.203954 0.453628 0.041046
0.234737 0.454040 0.041458
0.265520 0.454452 0.041870
0.296303 0.454864 0.042282
0.327086 0.455277 0.042694
0.357869 0.455689 0.043106
0.388652 0.456101 0.043518
0.419435 0.456513 0.043930
0.450218 0.456925 0.044343
0.481001 0.457337 0.044755
0.511784 0.457749 0.045167
0.542566 0.458162 0.045579
0.573349 0.458574 0.045991
0.604132 0.458986 0.046403
0.634915 0.459398 0.046815
0.665698 0.459810 0.047228
0.696481 0.460222 0.047640
0.727264 0.460634 0.048052
0.758047 0.461046 0.048464
0.788830 0.461459 0.048876
0.819613 0.461871 0.049288
0.850396 0.462283 0.049700
0.881179 0.462695 0.050113
0.911962 0.463107 0.050525
0.942745 0.463519 0.050937
0.973528 0.463931 0.051349
1.000000 0.464344 0.051761
1.000000 0.464756 0.052173
0.051367 0.481970 0.040312
0.082150 0.482382 0.040724
0.112932 0.482794 0.041136
0.143715 0.483206 0.041549
0.174498 0.483619 0.041961
0.205281 0.484031 0.042373
0.236064 0.484443 0.042785
0.266847 0.484855 0.043197
0.297630 0.485267 0.043609
0.328413 0.485679 0.044021
0.359196 0.486091 0.044434
0.389979 0.486504 0.044846
0.420762 0.486916 0.045258
0.451545 0.487328 0.045670
0.482328 0.487740 0.046082
0.513111 0.488152 0.046494
0.543894 0.488564 0.046906
0.574677 0.488976 0.047319
0.605460 0.489388 0.047731
0.636243 0.489801 0.048143
0.667026 0.490213 0.048555
0.697809 0.490625 0.048967
0.728591 0.491037 0.049379
0.759374 0.491449 0.049791
0.790157 0.491861 0.050203
0.820940 0.492273 0.050616
0.851723 0.492686 0.051028
0.882506 0.493098 0.051440
0.913289 0.493510 0.051852
0.944072 0.493922 0.052264
0.974855 0.494334 0.052676
1.000000 0.494746 0.053088
1.000000 0.495158 0.053501
0.052694 0.512373 0.041639
0.083477 0.512785 0.042052
0.114260 0.513197 0.042464
0.145043 0.513609 0.042876
0.175826 0.514021 0.043288
0.206609 0.514433 0.043700
0.237392 0.514846 0.044112
0.268175 0.515258 0.044524
0.298957 0.515670 0.044937
0.329740 0.516082 0.045349
0.360523 0.516494 0.045761
0.391306 0.516906 0.046173
0.422089 0.517318 0.046585
0.452872 0.517730 0.046997
0.483655 0.518143 0.047409
0.514438 0.518555 0.047822
0.545221 0.518967 0.048234
0.576004 0.519379 0.048646
0.606787 0.519791 0.049058
0.637570 0.520203 0.049470
0.668353 0.520615 0.049882
0.699136 0.521028 0.050294
0.729919 0.521440 0.050707
0.760702 0.521852 0.051119
0.791485 0.522264 0.051531
0.822268 0.522676 0.051943
0.853051 0.523088 0.052355
0.883834 0.523500 0.052767
0.914617 0.523913 0.053179
0.945399 0.524325 0.053591
0.976182 0.524737 0.054004
1.000000 0.525149 0.054416
1.000000 0.525561 0.054828
0.054021 0.542775 0.042967
0.084804 0.543188 0.043379
0.115587 0.543600 0.043791
0.146370 0.544012 0.044203
0.177153 0.544424 0.044615
0.207936 0.544836 0.045027
0.238719 0.545248 0.045440
0.269502 0.545660 0.045852
0.300285 0.546072 0.046264
0.331068 0.546485 0.046676
0.361851 0.546897 0.047088
0.392634 0.547309 0.047500
0.423417 0.547721 0.047912
0.454200 0.548133 0.048325
0.484983 0.548545 0.048737
0.515765 0.548957 0.049149
0.546548 0.549370 0.049561
0.577331 0.549782 0.049973
0.608114 0.550194 0.050385
0.638897 0.550606 0.050797
0.669680 0.551018 0.051210
0.700463 0.551430 0.051622
0.731246 0.551842 0.052034
0.762029 0.552255 0.052446
0.792812 0.552667 0.052858
0.823595 0.553079 0.053270
0.854378 0.553491 0.053682
0.885161 0.553903 0.054095
0.915944 0.554315 0.054507
0.946727 0.554727 0.054919
0.977510 0.555140 0.055331
1.000000 0.555552 0.055743
1.000000 0.555964 0.056155
0.055349 0.573178 0.044294
0.086131 0.573590 0.044706
0.116914 0.574002 0.045118
0.147697 0.574414 0.045531
0.178480 0.574827 0.045943
0.209263 0.575239 0.046355
0.240046 0.575651 0.046767
0.270829 0.576063 0.047179
0.301612 0.576475 0.047591
0.332395 0.576887 0.048003
0.363178 0.577299 0.048416
0.393961 0.577712 0.048828
0.424744 0.578124 0.049240
0.455527 0.578536 0.049652
0.486310 0.578948 0.050064
0.517093 0.579360 0.050476
0.547876 0.579772 0.050888
0.578659 0.580184 0.051300
0.609442 0.580597 0.051713
0.640225 0.581009 0.052125
0.671008 0.581421 0.052537
0.701790 0.581833 0.052949
0.732573 0.582245 0.053361
0.763356 0.582657 0.053773
0.794139 0.583069 0.054185
0.824922 0.583482 0.054598
0.855705 0.583894 0.055010
0.886488 0.584306 0.055422
0.917271 0.584718 0.055834
0.948054 0.585130 0.056246
0.978837 0.585542 0.056658
1.000000 0.585954 0.057070
1.000000 0.586367 0.057483
0.056676 0.603581 0.045621
0.087459 0.603993 0.046034
0.118242 0.604405 0.046446
0.149025 0.604817 0.046858
0.179808 0.605229 0.047270
0.210591 0.605641 0.047682
0.241374 0.606054 0.048094
0.272157 0.606466 0.048506
0.302939 0.606878 0.048919
0.333722 0.607290 0.049331
0.364505 0.607702 0.049743
0.395288 0.608114 0.050155
0.426071 0.608526 0.050567
0.456854 0.608939 0.050979
0.487637 0.609351 0.051391
0.518420 0.609763 0.051804
0.549203 0.610175 0.052216
0.579986 0.610587 0.052628
0.610769 0.610999 0.053040
0.641552 0.611411 0.053452
0.672335 0.611824 0.053864
0.703118 0.612236 0.054276
0.733901 0.612648 0.054688
0.764684 0.613060 0.055101
0.795467 0.613472 0.055513
0.826250 0.613884 0.055925
0.857033 0.614296 0.056337
0.887816 0.614709 0.056749
0.918598 0.615121 0.057161
0.949381 0.615533 0.057573
0.980164 0.615945 0.057986
1.000000 0.616357 0.058398
1.000000 0.616769 0.058810
0.058003 0.633983 0.046949
0.088786 0.634396 0.047361
0.119569 0.634808 0.047773
0.150352 0.635220 0.048185
0.181135 0.635632 0.048597
0.211918 0.636044 0.049009
0.242701 0.636456 0.049422
0.273484 0.636868 0.049834
0.304267 0.637281 0.050246
0.335050 0.637693 0.050658
0.365833 0.638105 0.051070
0.396616 0.638517 0.051482
0.427399 0.638929 0.051894
0.458182 0.639341 0.052307
0.488964 0.639753 0.052719
0.519747 0.640166 0.053131
0.550530 0.640578 0.053543
0.581313 0.640990 0.053955
0.612096 0.641402 0.054367
0.642879 0.641814 0.054779
0.673662 0.642226 0.055192
0.704445 0.642638 0.055604
0.735228 0.643051 0.056016
0.766011 0.643463 0.056428
0.796794 0.643875 0.056840
0.827577 0.644287 0.057252
0.858360 0.644699 0.057664
0.889143 0.645111 0.058077
0.919926 0.645523 0.058489
0.950709 0.645935 0.058901
0.981492 0.646348 0.059313
1.000000 0.646760 0.059725
1.000000 0.647172 0.060137
0.059330 0.664386 0.048276
0.090113 0.664798 0.048688
0.120896 0.665210 0.049100
0.151679 0.665623 0.049513
0.182462 0.666035 0.049925
0.213245 0.666447 0.050337
0.244028 0.666859 0.050749
0.274811 0.667271 0.051161
0.305594 0.667683 0.051573
0.336377 0.668095 0.051985
0.367160 0.668508 0.052397
0.397943 0.668920 0.052810
0.428726 0.669332 0.053222
0.459509 0.669744 0.053634
0.490292 0.670156 0.054046
0.521075 0.670568 0.054458
0.551858 0.670980 0.054870
0.582641 0.671393 0.055282
0.613424 0.671805 0.055695
0.644207 0.672217 0.056107
0.674990 0.672629 0.056519
0.705772 0.673041 0.056931
0.736555 0.673453 0.057343
0.767338 0.673865 0.057755
0.798121 0.674277 0.058167
0.828904 0.674690 0.058580
0.859687 0.675102 0.058992
0.890470 0.675514 0.059404
0.921253 0.675926 0.059816
0.952036 0.676338 0.060228
0.982819 0.676750 0.060640
1.000000 0.677162 0.061052
1.000000 0.677575 0.061465
0.060658 0.694789 0.049603
0.091441 0.695201 0.050016
0.122224 0.695613 0.050428
0.153007 0.696025 0.050840
0.183790 0.696437 0.051252
0.214573 0.696850 0.051664
0.245356 0.697262 0.052076
0.276138 0.697674 0.052488
0.306921 0.698086 0.052901
0.337704 0.698498 0.053313
0.368487 0.698910 0.053725
0.399270 0.699322 0.054137
0.430053 0.699735 0.054549
0.460836 0.700147 0.054961
0.491619 0.700559 0.055373
0.522402 0.700971 0.055785
0.553185 0.701383 0.056198
0.583968 0.701795 0.056610
0.614751 0.702207 0.057022
0.645534 0.702619 0.057434
0.676317 0.703032 0.057846
0.707100 0.703444 0.058258
0.737883 0.703856 0.058670
0.768666 0.704268 0.059083
0.799449 0.704680 0.059495
0.830232 0.705092 0.059907
0.861015 0.705504 0.060319
0.891797 0.705917 0.060731
0.922580 0.706329 0.061143
0.953363 0.706741 0.061555
0.984146 0.707153 0.061968
1.000000 0.707565 0.062380
1.000000 0.707977 0.062792
0.061985 0.725192 0.050931
0.092768 0.725604 0.051343
0.123551 0.726016 0.051755
0.154334 0.726428 0.052167
0.185117 0.726840 0.052579
0.215900 0.727252 0.052991
0.246683 0.727664 0.053404
0.277466 0.728077 0.053816
0.308249 0.728489 0.054228
0.339032 0.728901 0.054640
0.369815 0.729313 0.055052
0.400598 0.729725 0.055464
0.431381 0.730137 0.055876
0.462163 0.730549 0.056289
0.492946 0.730961 0.056701
0.523729 0.731374 0.057113
0.554512 0.731786 0.057525
0.585295 0.732198 0.057937
0.616078 0.732610 0.058349
0.646861 0.733022 0.058761
0.677644 0.733434 0.059174
0.708427 0.733846 0.059586
0.739210 0.734259 0.059998
0.769993 0.734671 0.060410
0.800776 0.735083 0.060822
0.831559 0.735495 0.061234
0.862342 0.735907 0.061646
0.893125 0.736319 0.062058
0.923908 0.736731 0.062471
0.954691 0.737144 0.062883
0.985474 0.737556 0.063295
1.000000 0.737968 0.063707
1.000000 0.738380 0.064119
0.063312 0.755594 0.052258
0.094095 0.756006 0.052670
0.124878 0.756419 0.053082
0.155661 0.756831 0.053494
0.186444 0.757243 0.053907
0.217227 0.757655 0.054319
0.248010 0.758067 0.054731
0.278793 0.758479 0.055143
0.309576 0.758891 0.055555
0.340359 0.759304 0.055967
0.371142 0.759716 0.056379
0.401925 0.760128 0.056792
0.432708 0.760540 0.057204
0.463491 0.760952 0.057616
0.494274 0.761364 0.058028
0.525057 0.761776 0.058440
0.555840 0.762188 0.058852
0.586623 0.762601 0.059264
0.617406 0.763013 0.059677
0.648189 0.763425 0.060089
0.678971 0.763837 0.060501
0.709754 0.764249 0.060913
0.740537 0.764661 0.061325
0.771320 0.765073 0.061737
0.802103 0.765486 0.062149
0.832886 0.765898 0.062562
0.863669 0.766310 0.062974
0.894452 0.766722 0.063386
0.925235 0.767134 0.063798
0.956018 0.767546 0.064210
0.986801 0.767958 0.064622
1.000000 0.768371 0.065034
1.000000 0.768783 0.065446
0.064640 0.785997 0.053585
0.095423 0.786409 0.053998
0.126206 0.786821 0.054410
0.156989 0.787233 0.054822
0.187772 0.787646 0.055234
0.218555 0.788058 0.055646
0.249337 0.788470 0.056058
0.280120 0.788882 0.056470
0.310903 0.789294 0.056882
0.341686 0.789706 0.057295
0.372469 0.790118 0.057707
0.403252 0.790530 0.058119
0.434035 0.790943 0.058531
0.464818 0.791355 0.058943
0.495601 0.791767 0.059355
0.526384 0.792179 0.059767
0.557167 0.792591 0.060180
0.587950 0.793003 0.060592
0.618733 0.793415 0.061004
0.649516 0.793828 0.061416
0.680299 0.794240 0.061828
0.711082 0.794652 0.062240
0.741865 0.795064 0.062652
0.772648 0.795476 0.063065
0.803431 0.795888 0.063477
0.834214 0.796300 0.063889
0.864997 0.796713 0.064301
0.895779 0.797125 0.064713
0.926562 0.797537 0.065125
0.957345 0.797949 0.065537
0.988128 0.798361 0.065950
1.000000 0.798773 0.066362
1.000000 0.799185 0.066774
0.065967 0.816400 0.054913
0.096750 0.816812 0.055325
0.127533 0.817224 0.055737
0.158316 0.817636 0.056149
0.189099 0.818048 0.056561
0.219882 0.818460 0.056973
0.250665 0.818872 0.057386
0.281448 0.819285 0.057798
0.312231 0.819697 0.058210
0.343014 0.820109 0.058622
0.373797 0.820521 0.059034
0.404580 0.820933 0.059446
0.435363 0.821345 0.059858
0.466145 0.821757 0.060270
0.496928 0.822170 0.060683
0.527711 0.822582 0.061095
0.558494 0.822994 0.061507
0.589277 0.823406 0.061919
0.620060 0.823818 0.062331
0.650843 0.824230 0.062743
0.681626 0.824642 0.063155
0.712409 0.825055 0.063568
0.743192 0.825467 0.063980
0.773975 0.825879 0.064392
0.804758 0.826291 0.064804
0.835541 0.826703 0.065216
0.866324 0.827115 0.065628
